; generated by PrusaSlicer 2.1.1+ on 2020-04-06 at 09:49:03 UTC

; 

; external perimeters extrusion width = 0.90mm
; perimeters extrusion width = 0.90mm
; infill extrusion width = 0.90mm
; solid infill extrusion width = 0.90mm
; top infill extrusion width = 0.80mm
; first layer extrusion width = 0.70mm

M73 P0 R71
M73 Q0 S71
M201 X1000 Y1000 Z1000 E5000 ; sets maximum accelerations, mm/sec^2
M203 X200 Y200 Z12 E120 ; sets maximum feedrates, mm/sec
M204 P1250 R1250 T1250 ; sets acceleration (P, T) and retract acceleration (R), mm/sec^2
M205 X8.00 Y8.00 Z0.40 E4.50 ; sets the jerk limits, mm/sec
M205 S0 T0 ; sets the minimum extruding and travel feed rate, mm/sec
M107
M862.3 P "MK3S" ; printer model check
M862.1 P0.8 ; nozzle diameter check
M115 U3.8.1 ; tell printer latest fw version
G90 ; use absolute coordinates
M83 ; extruder relative mode
M104 S230 ; set extruder temp
M140 S85 ; set bed temp
M190 S85 ; wait for bed temp
M109 S230 ; wait for extruder temp
G28 W ; home all without mesh bed level
G80 ; mesh bed leveling
G1 Y-3.0 F1000.0 ; go outside print area
G92 E0.0
G1 X60.0 E9.0 F1000.0 ; intro line
M73 Q0 S71
M73 P0 R71
G1 X100.0 E12.5 F1000.0 ; intro line
G92 E0.0
M221 S95
G21 ; set units to millimeters
G90 ; use absolute coordinates
M83 ; use relative distances for extrusion
M900 K45 ; Filament gcode
;BEFORE_LAYER_CHANGE
G92 E0.0
;0.35


G1 E-1.40000 F2100.00000
G1 Z0.200 F7800.000
G1 Z0.350
;AFTER_LAYER_CHANGE
;0.35
G1 Z0.550
G1 X49.139 Y38.757
G1 Z0.350
G1 E1.40000 F2100.00000
G1 F1800
G1 X60.830 Y23.934 E1.71664
G1 X61.924 Y22.762 E0.14582
G1 X63.019 Y21.794 E0.13284
G1 X64.279 Y20.875 E0.14187
G1 X65.153 Y20.342 E0.09304
G1 X67.389 Y19.284 E0.22495
G1 X68.758 Y18.829 E0.13116
G1 X70.395 Y18.460 E0.15257
G1 X142.393 Y8.125 E6.61393
G1 X150.144 Y7.316 E0.70861
G1 X188.123 Y4.439 E3.46328
G1 X189.149 Y4.523 E0.09359
G1 X192.656 Y5.189 E0.32463
G1 X194.018 Y5.629 E0.13010
G1 X217.198 Y16.294 E2.32017
G1 X218.401 Y16.939 E0.12415
G1 X219.644 Y17.769 E0.13585
G1 X220.798 Y18.717 E0.13584
G1 X221.763 Y19.681 E0.12398
G1 X239.178 Y42.136 E2.58393
G1 X240.391 Y44.032 E0.20469
G1 X241.058 Y45.444 E0.14206
G1 X241.572 Y46.907 E0.14095
G1 X246.576 Y64.230 E1.63963
G1 X246.743 Y65.038 E0.07501
G1 X246.804 Y65.867 E0.07558
G1 X246.645 Y69.618 E0.34132
G1 X246.537 Y70.467 E0.07783
G1 X233.450 Y133.719 E5.87335
G1 X233.199 Y134.602 E0.08346
G1 X231.831 Y138.165 E0.34703
G1 X231.068 Y139.433 E0.13458
G1 X189.432 Y192.820 E6.15618
G1 X188.391 Y193.957 E0.14018
G1 X187.313 Y194.933 E0.13228
G1 X186.517 Y195.554 E0.09175
G1 X185.185 Y196.425 E0.14470
G1 X183.939 Y197.086 E0.12830
G1 X182.468 Y197.694 E0.14471
G1 X180.993 Y198.143 E0.14019
G1 X179.341 Y198.467 E0.15313
G1 X107.045 Y206.684 E6.61618
G1 X99.273 Y207.266 E0.70861
G1 X61.487 Y209.028 E3.43961
G1 X60.082 Y208.885 E0.12842
G1 X56.603 Y208.114 E0.32407
G1 X55.526 Y207.737 E0.10371
G1 X32.655 Y196.396 E2.32130
G1 X31.329 Y195.640 E0.13882
G1 X29.986 Y194.673 E0.15048
G1 X28.818 Y193.626 E0.14259
G1 X27.429 Y192.035 E0.19207
G1 X11.291 Y169.829 E2.49611
G1 X10.079 Y167.779 E0.21650
G1 X9.513 Y166.464 E0.13022
G1 X9.065 Y165.065 E0.13361
G1 X4.503 Y147.305 E1.66728
G1 X4.380 Y145.799 E0.13739
G1 X4.723 Y141.582 E0.38469
G1 X19.734 Y78.408 E5.90437
G1 X19.998 Y77.587 E0.07839
G1 X21.444 Y74.122 E0.34139
G1 X22.175 Y72.943 E0.12617
G1 X49.064 Y38.851 E3.94815
G1 F6240
G1 X51.641 Y35.585 E-1.33000
G1 E-0.07000 F2100.00000
G1 Z0.550 F7800.000
G1 X189.468 Y16.370
G1 Z0.350
G1 E1.40000 F2100.00000
G1 F1800
G1 X193.739 Y17.193 E0.39546
G1 X197.028 Y17.901 E0.30592
G1 X200.302 Y18.682 E0.30606
G1 X203.558 Y19.534 E0.30603
G1 X206.794 Y20.456 E0.30597
G1 X210.009 Y21.450 E0.30603
G1 X213.184 Y22.508 E0.30424
G1 X213.937 Y22.812 E0.07390
G1 X214.639 Y23.182 E0.07212
G1 X215.299 Y23.621 E0.07212
G1 X215.911 Y24.126 E0.07212
G1 X216.469 Y24.690 E0.07211
G1 X216.966 Y25.307 E0.07211
G1 X217.406 Y25.985 E0.07352
G1 X217.559 Y26.260 E0.02856
G1 X217.896 Y26.993 E0.07334
G1 X218.153 Y27.743 E0.07211
G1 X218.333 Y28.515 E0.07212
G1 X218.433 Y29.302 E0.07212
G1 X218.452 Y30.094 E0.07202
G1 X218.306 Y31.919 E0.16652
G1 X218.316 Y32.954 E0.09409
G1 X218.423 Y33.985 E0.09419
G1 X218.624 Y35.001 E0.09419
G1 X218.918 Y35.994 E0.09419
G1 X219.135 Y36.538 E0.05330
G1 X219.302 Y36.956 E0.04089
G1 X219.774 Y37.878 E0.09419
G1 X220.329 Y38.753 E0.09419
G1 X220.962 Y39.572 E0.09419
G1 X221.668 Y40.330 E0.09419
G1 X222.442 Y41.019 E0.09419
G1 X223.275 Y41.634 E0.09419
G1 X224.162 Y42.169 E0.09419
G1 X225.095 Y42.620 E0.09419
G1 X226.065 Y42.983 E0.09419
G1 X227.063 Y43.254 E0.09409
G1 X228.862 Y43.572 E0.16612
G1 X229.620 Y43.789 E0.07163
G1 X230.352 Y44.082 E0.07173
G1 X231.060 Y44.451 E0.07258
G1 X231.704 Y44.876 E0.07023
G1 X232.321 Y45.379 E0.07236
G1 X232.890 Y45.948 E0.07312
G1 X233.095 Y46.184 E0.02840
G1 X233.575 Y46.826 E0.07294
G1 X233.982 Y47.502 E0.07172
G1 X234.317 Y48.216 E0.07172
G1 X234.579 Y48.960 E0.07173
G1 X234.764 Y49.727 E0.07173
G1 X234.873 Y50.528 E0.07349
G1 X235.153 Y54.308 E0.34463
G1 X235.351 Y58.112 E0.34639
G1 X235.465 Y61.920 E0.34640
G1 X235.504 Y66.665 E0.43147
G1 X239.474 Y66.841 E0.36139
G1 X239.418 Y68.099 E0.11447
G1 X235.500 Y67.413 E0.36171
G1 X235.342 Y72.565 E0.46868
G1 X235.126 Y76.577 E0.36537
G1 X234.818 Y80.584 E0.36537
G1 X234.417 Y84.582 E0.36537
G1 X233.923 Y88.569 E0.36537
G1 X233.338 Y92.545 E0.36537
G1 X232.660 Y96.505 E0.36537
G1 X231.892 Y100.449 E0.36537
G1 X231.032 Y104.375 E0.36537
G1 X230.082 Y108.279 E0.36537
G1 X229.042 Y112.160 E0.36537
G1 X227.912 Y116.016 E0.36537
G1 X226.694 Y119.845 E0.36537
G1 X225.387 Y123.645 E0.36537
G1 X223.993 Y127.413 E0.36537
G1 X222.094 Y132.205 E0.46868
G1 X225.963 Y133.130 E0.36171
G1 X225.515 Y134.307 E0.11447
G1 X221.800 Y132.893 E0.36139
G1 X219.882 Y137.234 E0.43147
G1 X218.266 Y140.683 E0.34639
G1 X216.575 Y144.097 E0.34640
G1 X214.818 Y147.455 E0.34463
G1 X214.400 Y148.147 E0.07349
G1 X213.923 Y148.782 E0.07220
G1 X213.702 Y149.025 E0.02990
G1 X213.393 Y149.354 E0.04101
G1 X212.799 Y149.879 E0.07208
G1 X212.158 Y150.338 E0.07172
G1 X211.474 Y150.730 E0.07171
G1 X210.739 Y151.058 E0.07313
G1 X210.446 Y151.165 E0.02840
G1 X209.674 Y151.383 E0.07294
G1 X208.897 Y151.520 E0.07172
G1 X208.110 Y151.578 E0.07172
G1 X207.322 Y151.556 E0.07173
G1 X206.541 Y151.454 E0.07163
G1 X204.763 Y151.032 E0.16612
G1 X203.739 Y150.885 E0.09409
G1 X202.704 Y150.833 E0.09419
G1 X201.669 Y150.877 E0.09419
G1 X200.643 Y151.016 E0.09419
G1 X199.634 Y151.250 E0.09419
G1 X198.651 Y151.576 E0.09419
G1 X197.702 Y151.991 E0.09419
G1 X196.795 Y152.492 E0.09419
G1 X195.939 Y153.075 E0.09419
G1 X195.140 Y153.734 E0.09419
G1 X194.405 Y154.464 E0.09419
G1 X193.741 Y155.259 E0.09419
G1 X193.153 Y156.112 E0.09419
G1 X192.647 Y157.016 E0.09419
G1 X192.227 Y157.961 E0.09409
G1 X191.637 Y159.695 E0.16652
G1 X191.305 Y160.414 E0.07202
G1 X190.897 Y161.103 E0.07279
G1 X190.705 Y161.370 E0.02992
G1 X190.433 Y161.730 E0.04104
G1 X189.896 Y162.321 E0.07262
G1 X189.305 Y162.850 E0.07211
G1 X188.651 Y163.326 E0.07353
G1 X188.385 Y163.493 E0.02856
G1 X187.665 Y163.872 E0.07399
G1 X187.251 Y164.046 E0.04085
G1 X186.945 Y164.162 E0.02978
G1 X186.174 Y164.385 E0.07297
G1 X185.391 Y164.527 E0.07234
G1 X184.937 Y164.564 E0.04142
G1 X184.606 Y164.588 E0.03021
G1 X183.790 Y164.568 E0.07419
G1 X180.457 Y164.279 E0.30424
G1 X177.111 Y163.915 E0.30602
G1 X173.774 Y163.478 E0.30602
G1 X170.447 Y162.967 E0.30606
G1 X167.133 Y162.385 E0.30594
G1 X163.832 Y161.730 E0.30605
G1 X159.586 Y160.790 E0.39542
G1 X158.656 Y164.948 E0.38743
G1 X157.289 Y164.642 E0.12732
G1 X157.410 Y164.103 E0.05022
G1 X158.384 Y164.329 E0.09093
G1 X159.197 Y160.697 E0.33842
G1 X154.645 Y159.505 E0.42784
G1 X151.039 Y158.466 E0.34124
G1 X147.459 Y157.340 E0.34124
G1 X143.908 Y156.126 E0.34124
G1 X140.388 Y154.826 E0.34124
G1 X136.900 Y153.441 E0.34124
G1 X133.447 Y151.971 E0.34124
G1 X130.031 Y150.417 E0.34128
G1 X126.654 Y148.780 E0.34116
G1 X123.318 Y147.061 E0.34129
G1 X120.024 Y145.262 E0.34124
G1 X116.776 Y143.382 E0.34124
G1 X113.575 Y141.424 E0.34124
G1 X110.422 Y139.389 E0.34124
G1 X107.320 Y137.277 E0.34124
G1 X104.270 Y135.090 E0.34124
G1 X101.275 Y132.829 E0.34124
G1 X98.335 Y130.496 E0.34124
G1 X95.454 Y128.092 E0.34124
G1 X92.631 Y125.618 E0.34126
G1 X91.076 Y124.187 E0.19213
G1 X89.871 Y123.076 E0.14908
G1 X87.173 Y120.467 E0.34126
G1 X84.539 Y117.794 E0.34124
G1 X81.972 Y115.057 E0.34124
G1 X79.472 Y112.258 E0.34124
G1 X77.041 Y109.399 E0.34124
G1 X74.680 Y106.481 E0.34124
G1 X72.391 Y103.507 E0.34124
G1 X70.176 Y100.478 E0.34124
G1 X68.035 Y97.396 E0.34124
G1 X65.951 Y94.232 E0.34450
G1 X65.452 Y93.550 E0.07685
G1 X64.849 Y92.909 E0.07996
G1 X64.468 Y92.590 E0.04524
G1 X64.169 Y92.343 E0.03522
G1 X63.430 Y91.867 E0.07991
G1 X62.637 Y91.485 E0.08011
G1 X61.803 Y91.202 E0.08011
G1 X60.940 Y91.023 E0.08011
G1 X60.068 Y90.951 E0.07959
G1 X59.565 Y90.965 E0.04572
G1 X59.174 Y90.987 E0.03558
G1 X58.313 Y91.129 E0.07941
G1 X57.467 Y91.377 E0.08010
G1 X56.658 Y91.726 E0.08010
G1 X55.898 Y92.171 E0.08010
G1 X55.198 Y92.706 E0.08009
G1 X54.577 Y93.315 E0.07915
G1 X54.013 Y94.022 E0.08227
G1 X53.559 Y94.761 E0.07883
G1 X53.193 Y95.562 E0.08008
G1 X52.931 Y96.389 E0.07890
G1 X52.820 Y96.907 E0.04811
G1 X52.721 Y97.769 E0.07890
G1 X52.728 Y98.649 E0.08008
G1 X52.843 Y99.523 E0.08009
G1 X53.063 Y100.375 E0.08009
G1 X53.386 Y101.195 E0.08009
G1 X53.806 Y101.969 E0.08009
G1 X54.318 Y102.686 E0.08010
G1 X54.913 Y103.335 E0.08010
G1 X55.584 Y103.906 E0.08010
G1 X56.319 Y104.392 E0.08010
G1 X57.102 Y104.781 E0.07950
G1 X57.469 Y104.916 E0.03552
G1 X57.944 Y105.077 E0.04564
G1 X58.799 Y105.265 E0.07965
G1 X59.677 Y105.348 E0.08011
G1 X60.557 Y105.323 E0.08011
G1 X61.428 Y105.190 E0.08011
G1 X62.276 Y104.952 E0.08011
G1 X63.086 Y104.614 E0.07978
G1 X63.987 Y104.109 E0.09389
G1 X64.247 Y104.049 E0.02432
G1 X64.386 Y104.053 E0.01262
G1 X64.651 Y104.133 E0.02515
G1 X64.769 Y104.206 E0.01262
G1 X64.916 Y104.355 E0.01907
G1 X65.024 Y104.530 E0.01867
G1 X65.067 Y104.662 E0.01262
G1 X65.083 Y104.938 E0.02515
G1 X65.003 Y105.203 E0.02515
G1 X64.837 Y105.424 E0.02515
G1 X64.713 Y105.522 E0.01434
G1 X63.990 Y105.946 E0.07624
G1 X63.212 Y106.306 E0.07795
G1 X62.403 Y106.589 E0.07795
G1 X61.570 Y106.791 E0.07795
G1 X60.721 Y106.912 E0.07795
G1 X59.864 Y106.949 E0.07795
G1 X59.008 Y106.903 E0.07795
G1 X58.161 Y106.773 E0.07795
G1 X57.330 Y106.562 E0.07795
G1 X56.524 Y106.271 E0.07795
G1 X55.750 Y105.903 E0.07794
G1 X55.015 Y105.461 E0.07794
G1 X54.327 Y104.950 E0.07794
G1 X53.692 Y104.374 E0.07794
G1 X53.116 Y103.739 E0.07794
G1 X52.605 Y103.052 E0.07794
G1 X52.162 Y102.317 E0.07794
G1 X51.794 Y101.544 E0.07794
G1 X51.499 Y100.728 E0.07890
G1 X51.401 Y100.376 E0.03323
G1 X51.292 Y99.915 E0.04299
G1 X51.161 Y99.060 E0.07870
G1 X51.114 Y98.204 E0.07793
G1 X51.151 Y97.348 E0.07793
G1 X51.272 Y96.486 E0.07914
G1 X51.346 Y96.141 E0.03210
G1 X51.587 Y95.304 E0.07914
G1 X51.903 Y94.508 E0.07793
G1 X52.300 Y93.738 E0.07874
G1 X52.548 Y93.337 E0.04294
G1 X52.753 Y93.034 E0.03319
G1 X53.293 Y92.354 E0.07895
G1 X53.888 Y91.737 E0.07793
G1 X54.540 Y91.182 E0.07794
G1 X55.249 Y90.688 E0.07855
G1 X55.661 Y90.450 E0.04319
G1 X55.984 Y90.277 E0.03339
G1 X56.777 Y89.929 E0.07871
G1 X57.592 Y89.663 E0.07794
G1 X58.428 Y89.478 E0.07794
G1 X59.279 Y89.374 E0.07794
G1 X60.136 Y89.355 E0.07795
G1 X60.995 Y89.419 E0.07828
G1 X61.467 Y89.497 E0.04353
G1 X61.831 Y89.564 E0.03366
G1 X62.662 Y89.793 E0.07837
G1 X63.462 Y90.100 E0.07795
G1 X64.229 Y90.484 E0.07795
G1 X64.954 Y90.941 E0.07795
G1 X65.632 Y91.466 E0.07795
G1 X66.255 Y92.054 E0.07795
G1 X66.819 Y92.701 E0.07795
G1 X67.333 Y93.423 E0.08067
G1 X69.411 Y96.574 E0.34319
G1 X71.584 Y99.696 E0.34590
G1 X73.834 Y102.764 E0.34590
G1 X76.160 Y105.774 E0.34590
G1 X78.561 Y108.724 E0.34590
G1 X81.035 Y111.614 E0.34590
G1 X83.580 Y114.442 E0.34590
G1 X86.195 Y117.205 E0.34590
G1 X87.704 Y118.722 E0.19466
G1 X88.878 Y119.901 E0.15125
G1 X91.627 Y122.530 E0.34590
G1 X94.442 Y125.089 E0.34590
G1 X97.320 Y127.577 E0.34590
G1 X100.259 Y129.992 E0.34590
G1 X103.257 Y132.333 E0.34590
G1 X106.313 Y134.599 E0.34590
G1 X109.425 Y136.787 E0.34590
G1 X112.590 Y138.897 E0.34590
G1 X115.807 Y140.927 E0.34590
G1 X119.074 Y142.876 E0.34590
G1 X122.388 Y144.743 E0.34590
G1 X125.748 Y146.527 E0.34590
G1 X129.152 Y148.225 E0.34590
G1 X132.597 Y149.839 E0.34590
G1 X136.081 Y151.365 E0.34590
G1 X139.603 Y152.805 E0.34590
G1 X143.159 Y154.155 E0.34590
G1 X146.748 Y155.417 E0.34590
G1 X150.367 Y156.588 E0.34590
G1 X154.014 Y157.668 E0.34590
G1 X157.688 Y158.657 E0.34590
G1 X161.385 Y159.554 E0.34590
G1 X165.103 Y160.358 E0.34590
G1 X168.840 Y161.069 E0.34590
G1 X172.593 Y161.687 E0.34590
G1 X176.361 Y162.210 E0.34590
G1 X180.141 Y162.639 E0.34590
G1 X183.956 Y162.976 E0.34823
G1 X184.733 Y162.984 E0.07065
G1 X185.530 Y162.889 E0.07298
G1 X186.308 Y162.691 E0.07297
G1 X187.042 Y162.399 E0.07186
G1 X187.462 Y162.179 E0.04313
G1 X188.119 Y161.750 E0.07136
G1 X188.720 Y161.237 E0.07188
G1 X188.975 Y160.967 E0.03377
G1 X189.272 Y160.625 E0.04113
G1 X189.722 Y159.972 E0.07211
G1 X190.092 Y159.252 E0.07364
G1 X190.691 Y157.501 E0.16823
G1 X191.109 Y156.523 E0.09669
G1 X191.604 Y155.587 E0.09630
G1 X192.175 Y154.695 E0.09631
G1 X192.817 Y153.853 E0.09631
G1 X193.527 Y153.067 E0.09631
G1 X194.300 Y152.343 E0.09631
G1 X195.130 Y151.685 E0.09631
G1 X196.011 Y151.098 E0.09631
G1 X196.938 Y150.585 E0.09631
G1 X197.904 Y150.151 E0.09630
G1 X198.903 Y149.799 E0.09631
G1 X199.927 Y149.530 E0.09631
G1 X200.971 Y149.347 E0.09630
G1 X202.025 Y149.251 E0.09630
G1 X203.084 Y149.242 E0.09631
G1 X204.141 Y149.321 E0.09631
G1 X205.191 Y149.487 E0.09670
G1 X206.999 Y149.913 E0.16889
G1 X207.813 Y149.982 E0.07433
G1 X208.623 Y149.945 E0.07366
G1 X209.416 Y149.804 E0.07325
G1 X210.198 Y149.556 E0.07460
G1 X210.926 Y149.215 E0.07311
G1 X211.609 Y148.779 E0.07365
G1 X212.222 Y148.264 E0.07289
G1 X212.551 Y147.916 E0.04349
G1 X213.286 Y147.029 E0.10476
G1 X212.556 Y145.839 E0.12695
G1 X209.627 Y146.503 E0.27307
G1 X209.303 Y146.550 E0.02977
G1 X208.925 Y146.538 E0.03436
G1 X208.604 Y146.473 E0.02977
G1 X200.224 Y144.050 E0.79324
G1 X199.982 Y143.959 E0.02354
G1 X199.790 Y143.850 E0.02003
G1 X199.619 Y143.712 E0.02003
G1 X199.471 Y143.549 E0.02002
G1 X199.350 Y143.364 E0.02003
G1 X199.260 Y143.163 E0.02003
G1 X199.202 Y142.951 E0.02002
G1 X199.179 Y142.732 E0.02003
G1 X199.191 Y142.512 E0.02003
G1 X199.259 Y142.238 E0.02570
G1 X199.361 Y142.098 E0.01569
G1 X201.332 Y139.979 E0.26319
G1 X203.263 Y137.760 E0.26745
G1 X205.119 Y135.478 E0.26745
G1 X206.899 Y133.137 E0.26745
G1 X208.601 Y130.738 E0.26745
G1 X210.222 Y128.284 E0.26745
G1 X211.762 Y125.778 E0.26745
G1 X213.218 Y123.222 E0.26745
G1 X214.589 Y120.620 E0.26745
G1 X215.873 Y117.974 E0.26745
G1 X217.069 Y115.287 E0.26745
G1 X218.176 Y112.562 E0.26745
G1 X219.192 Y109.801 E0.26745
G1 X220.116 Y107.009 E0.26745
G1 X220.947 Y104.188 E0.26745
G1 X221.685 Y101.341 E0.26745
G1 X222.329 Y98.471 E0.26745
G1 X222.877 Y95.581 E0.26745
G1 X223.330 Y92.675 E0.26745
G1 X223.686 Y89.755 E0.26745
G1 X223.946 Y86.825 E0.26745
G1 X224.108 Y83.889 E0.26745
G1 X224.174 Y80.948 E0.26745
G1 X224.143 Y78.007 E0.26745
G1 X224.014 Y75.069 E0.26745
G1 X223.788 Y72.136 E0.26745
G1 X223.466 Y69.212 E0.26745
G1 X223.047 Y66.301 E0.26745
G1 X222.533 Y63.405 E0.26745
G1 X221.922 Y60.528 E0.26745
G1 X221.218 Y57.672 E0.26745
G1 X220.419 Y54.842 E0.26745
G1 X219.527 Y52.039 E0.26745
G1 X218.559 Y49.311 E0.26319
G1 X218.521 Y49.143 E0.01568
G1 X218.567 Y48.864 E0.02571
G1 X218.644 Y48.657 E0.02003
G1 X218.752 Y48.466 E0.02002
G1 X218.889 Y48.293 E0.02003
G1 X219.052 Y48.144 E0.02003
G1 X219.236 Y48.023 E0.02002
G1 X219.436 Y47.932 E0.02003
G1 X219.649 Y47.874 E0.02003
G1 X219.867 Y47.850 E0.02003
G1 X220.126 Y47.862 E0.02354
G1 X228.783 Y48.964 E0.79358
G1 X229.086 Y49.025 E0.02805
G1 X229.343 Y49.117 E0.02485
G1 X229.585 Y49.245 E0.02485
G1 X229.834 Y49.427 E0.02805
G1 X232.067 Y51.320 E0.26624
G1 X233.347 Y50.503 E0.13805
G1 X232.947 Y49.104 E0.13227
G1 X232.647 Y48.398 E0.06981
