; generated by PrusaSlicer 2.1.1+ on 2020-03-27 at 16:40:11 UTC

; 

; external perimeters extrusion width = 0.80mm
; perimeters extrusion width = 0.80mm
; infill extrusion width = 0.80mm
; solid infill extrusion width = 0.80mm
; top infill extrusion width = 0.80mm
; first layer extrusion width = 0.80mm

M73 P0 R33
M73 Q0 S33
M201 X1000 Y1000 Z1000 E5000 ; sets maximum accelerations, mm/sec^2
M203 X200 Y200 Z12 E120 ; sets maximum feedrates, mm/sec
M204 P1250 R1250 T1250 ; sets acceleration (P, T) and retract acceleration (R), mm/sec^2
M205 X8.00 Y8.00 Z0.40 E4.50 ; sets the jerk limits, mm/sec
M205 S0 T0 ; sets the minimum extruding and travel feed rate, mm/sec
M107
M862.3 P "MK3S" ; printer model check
M862.1 P0.4 ; nozzle diameter check
M115 U3.8.1 ; tell printer latest fw version
G90 ; use absolute coordinates
M83 ; extruder relative mode
M104 S230 ; set extruder temp
M140 S85 ; set bed temp
M190 S85 ; wait for bed temp
M109 S230 ; wait for extruder temp
G28 W ; home all without mesh bed level
G80 ; mesh bed leveling
G1 Y-3.0 F1000.0 ; go outside print area
G92 E0.0
G1 X60.0 E9.0 F1000.0 ; intro line
M73 Q0 S33
M73 P0 R33
G1 X100.0 E12.5 F1000.0 ; intro line
G92 E0.0
M221 S95
G21 ; set units to millimeters
G90 ; use absolute coordinates
M83 ; use relative distances for extrusion
M900 K45 ; Filament gcode
;BEFORE_LAYER_CHANGE
G92 E0.0
;0.3


G1 E-1.40000 F2100.00000
G1 Z0.200 F10800.000
G1 Z0.300
;AFTER_LAYER_CHANGE
;0.3
G1 Z0.500
G1 X161.819 Y196.985
G1 Z0.300
G1 E1.40000 F2100.00000
M204 S1000
G1 F1200
G1 X156.704 Y197.806 E0.47537
G1 X93.292 Y197.807 E5.81804
G1 X88.013 Y196.938 E0.49086
G1 X72.394 Y188.770 E1.61724
G1 X71.465 Y188.222 E0.09892
G1 X70.516 Y187.526 E0.10796
G1 X69.021 Y186.059 E0.19219
G1 X50.940 Y164.910 E2.55290
G1 X50.326 Y163.953 E0.10433
G1 X49.823 Y162.969 E0.10144
G1 X49.413 Y161.925 E0.10289
G1 X49.123 Y160.905 E0.09725
G1 X43.619 Y136.374 E2.30670
G1 X43.690 Y131.714 E0.42768
G1 X43.763 Y131.191 E0.04838
G1 X53.948 Y95.404 E3.41390
G1 X55.079 Y91.706 E0.35475
G1 X56.390 Y87.790 E0.37894
G1 X80.862 Y20.031 E6.60994
G1 X81.409 Y18.825 E0.12156
G1 X81.945 Y17.889 E0.09892
G1 X82.626 Y16.920 E0.10864
G1 X83.481 Y15.936 E0.11962
G1 X85.118 Y14.510 E0.19921
G1 X86.276 Y13.763 E0.12643
G1 X88.262 Y12.856 E0.20029
G1 X89.511 Y12.484 E0.11961
G1 X90.772 Y12.252 E0.11766
G1 X91.967 Y12.153 E0.10998
G1 X158.001 Y12.153 E6.05861
G1 X159.384 Y12.279 E0.12741
G1 X160.450 Y12.483 E0.09962
G1 X161.577 Y12.809 E0.10768
G1 X162.794 Y13.301 E0.12042
G1 X163.757 Y13.799 E0.09942
G1 X164.746 Y14.434 E0.10790
G1 X165.774 Y15.253 E0.12054
G1 X166.557 Y16.007 E0.09977
G1 X167.331 Y16.906 E0.10886
G1 X168.073 Y17.973 E0.11926
G1 X168.613 Y18.926 E0.10049
G1 X169.082 Y19.971 E0.10507
G1 X193.692 Y88.110 E6.64709
G1 X196.017 Y95.392 E0.70134
G1 X206.221 Y131.132 E3.41015
G1 X206.310 Y131.724 E0.05496
G1 X206.344 Y136.709 E0.45732
G1 X200.859 Y160.846 E2.27109
G1 X200.530 Y161.992 E0.10934
G1 X200.151 Y162.955 E0.09499
G1 X199.650 Y163.940 E0.10144
G1 X199.058 Y164.869 E0.10109
G1 X198.412 Y165.696 E0.09620
G1 X180.953 Y186.053 E2.46063
G1 X180.151 Y186.906 E0.10742
G1 X178.594 Y188.160 E0.18344
G1 X177.592 Y188.760 E0.10714
G1 X161.873 Y196.957 E1.62659
G1 F8640
G1 X156.704 Y197.806 E-1.20948
G1 X156.182 Y197.806 E-0.12052
G1 E-0.07000 F2100.00000
G1 Z0.500 F10800.000
G1 X169.600 Y185.085
G1 Z0.300
G1 E1.40000 F2100.00000
G1 F1200
G1 X166.552 Y185.883 E0.28907
G1 X162.892 Y186.755 E0.34525
G1 X157.860 Y187.838 E0.47221
G1 X152.628 Y188.756 E0.48737
G1 X148.707 Y189.350 E0.36392
G1 X144.772 Y189.854 E0.36392
G1 X140.827 Y190.266 E0.36392
G1 X136.874 Y190.587 E0.36392
G1 X132.914 Y190.816 E0.36392
G1 X128.950 Y190.954 E0.36392
G1 X124.984 Y191.000 E0.36392
G1 X121.018 Y190.954 E0.36392
G1 X117.054 Y190.816 E0.36392
G1 X113.094 Y190.587 E0.36392
G1 X109.140 Y190.266 E0.36392
G1 X105.196 Y189.854 E0.36392
G1 X101.261 Y189.350 E0.36392
G1 X97.340 Y188.756 E0.36392
G1 X92.107 Y187.838 E0.48737
G1 X87.076 Y186.755 E0.47222
G1 X83.416 Y185.883 E0.34525
G1 X79.833 Y184.945 E0.33978
G1 X77.590 Y180.010 E0.49739
G1 X78.126 Y173.087 E0.63711
G1 X78.876 Y173.542 E0.08048
G1 X81.509 Y175.022 E0.27711
G1 X84.189 Y176.414 E0.27712
G1 X86.914 Y177.717 E0.27712
G1 X89.680 Y178.929 E0.27712
G1 X92.485 Y180.049 E0.27711
G1 X95.326 Y181.076 E0.27712
G1 X98.199 Y182.008 E0.27712
G1 X101.101 Y182.845 E0.27711
G1 X104.029 Y183.586 E0.27712
G1 X106.980 Y184.230 E0.27712
G1 X109.950 Y184.775 E0.27711
G1 X112.937 Y185.223 E0.27712
G1 X115.937 Y185.571 E0.27711
G1 X118.947 Y185.820 E0.27711
G1 X121.964 Y185.970 E0.27712
G1 X124.984 Y186.020 E0.27712
G1 X128.004 Y185.970 E0.27711
G1 X131.020 Y185.820 E0.27712
G1 X134.030 Y185.571 E0.27711
G1 X137.031 Y185.223 E0.27712
G1 X140.018 Y184.775 E0.27712
G1 X142.988 Y184.230 E0.27712
G1 X145.939 Y183.586 E0.27711
G1 X148.867 Y182.845 E0.27712
G1 X151.769 Y182.008 E0.27711
G1 X154.642 Y181.076 E0.27712
G1 X157.482 Y180.049 E0.27712
G1 X160.287 Y178.929 E0.27711
G1 X163.054 Y177.717 E0.27712
G1 X165.779 Y176.414 E0.27712
G1 X168.459 Y175.022 E0.27711
G1 X171.092 Y173.542 E0.27711
G1 X171.842 Y173.087 E0.08048
G1 X172.377 Y179.991 E0.63536
G1 X169.629 Y185.033 E0.52682
G1 X170.094 Y185.717 F10800.000
G1 F1200
G1 X166.731 Y186.597 E0.31898
G1 X163.055 Y187.473 E0.34673
G1 X158.001 Y188.560 E0.47425
G1 X152.747 Y189.482 E0.48945
G1 X148.808 Y190.079 E0.36548
G1 X144.857 Y190.584 E0.36548
G1 X140.895 Y190.998 E0.36548
G1 X136.925 Y191.321 E0.36548
G1 X132.948 Y191.551 E0.36548
G1 X128.967 Y191.689 E0.36548
G1 X124.984 Y191.735 E0.36548
G1 X121.001 Y191.689 E0.36548
G1 X117.020 Y191.551 E0.36548
G1 X113.043 Y191.321 E0.36548
G1 X109.072 Y190.998 E0.36548
G1 X105.111 Y190.584 E0.36548
G1 X101.159 Y190.079 E0.36548
G1 X97.221 Y189.482 E0.36548
G1 X91.966 Y188.560 E0.48945
G1 X86.913 Y187.473 E0.47426
G1 X83.237 Y186.597 E0.34673
G1 X79.305 Y185.561 E0.37311
G1 X76.910 Y180.295 E0.53081
G1 X76.854 Y180.097 E0.01880
G1 X77.485 Y171.838 E0.76000
G1 X79.247 Y172.907 E0.18907
G1 X81.859 Y174.375 E0.27488
G1 X84.517 Y175.755 E0.27489
G1 X87.220 Y177.048 E0.27489
G1 X89.965 Y178.250 E0.27489
G1 X92.747 Y179.361 E0.27488
G1 X95.564 Y180.380 E0.27489
G1 X98.414 Y181.305 E0.27489
G1 X101.293 Y182.135 E0.27488
G1 X104.197 Y182.870 E0.27489
G1 X107.125 Y183.508 E0.27489
G1 X110.071 Y184.050 E0.27489
G1 X113.034 Y184.493 E0.27489
G1 X116.010 Y184.839 E0.27488
G1 X118.996 Y185.086 E0.27489
G1 X121.988 Y185.235 E0.27489
G1 X124.984 Y185.284 E0.27489
G1 X127.979 Y185.235 E0.27488
G1 X130.972 Y185.086 E0.27489
G1 X133.958 Y184.839 E0.27489
G1 X136.934 Y184.493 E0.27489
G1 X139.897 Y184.050 E0.27489
G1 X142.843 Y183.508 E0.27489
G1 X145.770 Y182.870 E0.27488
G1 X148.675 Y182.135 E0.27489
G1 X151.554 Y181.305 E0.27488
G1 X154.403 Y180.380 E0.27489
G1 X157.221 Y179.361 E0.27489
G1 X160.003 Y178.250 E0.27488
G1 X162.747 Y177.048 E0.27489
G1 X165.450 Y175.755 E0.27489
G1 X168.109 Y174.375 E0.27488
G1 X170.721 Y172.907 E0.27488
G1 X172.483 Y171.838 E0.18907
G1 X173.115 Y179.986 E0.74985
G1 X173.111 Y180.148 E0.01486
G1 X173.048 Y180.298 E0.01486
G1 X170.123 Y185.664 E0.56077
G1 X170.588 Y186.348 F10800.000
G1 F1200
G1 X166.909 Y187.310 E0.34890
G1 X163.217 Y188.190 E0.34821
G1 X158.142 Y189.283 E0.47629
G1 X152.865 Y190.208 E0.49153
G1 X148.910 Y190.807 E0.36705
G1 X144.942 Y191.315 E0.36705
G1 X140.963 Y191.731 E0.36705
G1 X136.976 Y192.055 E0.36705
G1 X132.982 Y192.286 E0.36704
G1 X128.984 Y192.425 E0.36705
G1 X124.984 Y192.471 E0.36705
G1 X120.984 Y192.425 E0.36705
G1 X116.986 Y192.286 E0.36705
G1 X112.992 Y192.055 E0.36705
G1 X109.004 Y191.731 E0.36705
G1 X105.026 Y191.315 E0.36705
G1 X101.058 Y190.807 E0.36705
G1 X97.102 Y190.208 E0.36705
G1 X91.826 Y189.283 E0.49153
G1 X86.751 Y188.190 E0.47629
M73 Q3 S32
G1 X83.059 Y187.310 E0.34821
G1 X78.776 Y186.175 E0.40653
G1 X76.228 Y180.572 E0.56473
G1 X76.155 Y180.370 E0.01969
G1 X76.119 Y180.163 E0.01934
G1 X76.118 Y179.948 E0.01969
M73 P3 R32
G1 X76.810 Y171.175 E0.80743
G1 X76.867 Y171.038 E0.01364
G1 X76.964 Y170.925 E0.01364
G1 X77.091 Y170.848 E0.01364
G1 X77.219 Y170.816 E0.01208
G1 X79.618 Y172.271 E0.25745
G1 X82.209 Y173.727 E0.27265
G1 X84.846 Y175.097 E0.27266
G1 X87.527 Y176.379 E0.27266
G1 X90.249 Y177.572 E0.27266
G1 X93.008 Y178.674 E0.27265
G1 X95.803 Y179.684 E0.27266
G1 X98.630 Y180.601 E0.27266
G1 X101.485 Y181.425 E0.27265
G1 X104.366 Y182.154 E0.27266
G1 X107.269 Y182.787 E0.27266
G1 X110.192 Y183.324 E0.27266
G1 X113.131 Y183.764 E0.27266
G1 X116.083 Y184.107 E0.27265
G1 X119.045 Y184.352 E0.27266
G1 X122.013 Y184.499 E0.27266
G1 X124.984 Y184.548 E0.27266
G1 X127.955 Y184.499 E0.27265
G1 X130.923 Y184.352 E0.27266
G1 X133.885 Y184.107 E0.27266
G1 X136.837 Y183.764 E0.27266
G1 X139.776 Y183.324 E0.27266
G1 X142.698 Y182.787 E0.27266
G1 X145.602 Y182.154 E0.27265
G1 X148.483 Y181.425 E0.27266
G1 X151.338 Y180.601 E0.27265
G1 X154.165 Y179.684 E0.27266
G1 X156.959 Y178.674 E0.27266
G1 X159.719 Y177.572 E0.27266
G1 X162.441 Y176.379 E0.27266
G1 X165.122 Y175.097 E0.27266
G1 X167.759 Y173.727 E0.27266
G1 X170.350 Y172.271 E0.27266
G1 X172.749 Y170.816 E0.25745
G1 X172.806 Y170.825 E0.00528
G1 X173.004 Y170.925 E0.02035
G1 X173.101 Y171.038 E0.01364
G1 X173.139 Y171.118 E0.00815
G1 X173.183 Y171.351 E0.02170
G1 X173.850 Y179.956 E0.79191
G1 X173.832 Y180.303 E0.03186
G1 X173.707 Y180.626 E0.03186
G1 X170.617 Y186.295 E0.59234
G1 F8640
G1 X166.909 Y187.310 E-0.88761
G1 X165.045 Y187.755 E-0.44239
G1 E-0.07000 F2100.00000
G1 Z0.500 F10800.000
G1 X77.776 Y185.753
G1 Z0.300
G1 E1.40000 F2100.00000
G1 F1200
G1 X75.546 Y180.850 E0.49421
G1 X75.442 Y180.561 E0.02821
G1 X75.383 Y180.228 E0.03097
G1 X75.382 Y179.921 E0.02821
G1 X76.056 Y171.236 E0.79920
G1 X76.093 Y171.003 E0.02164
G1 X76.152 Y170.822 E0.01751
G1 X76.238 Y170.652 E0.01751
G1 X76.351 Y170.497 E0.01751
G1 X76.486 Y170.363 E0.01751
G1 X76.641 Y170.251 E0.01751
G1 X76.811 Y170.165 E0.01751
G1 X76.993 Y170.107 E0.01751
G1 X77.182 Y170.078 E0.01751
G1 X77.437 Y170.095 E0.02351
G1 X79.989 Y171.636 E0.27350
G1 X82.558 Y173.080 E0.27042
G1 X85.174 Y174.439 E0.27043
G1 X87.833 Y175.710 E0.27043
G1 X90.533 Y176.893 E0.27043
G1 X93.270 Y177.986 E0.27042
G1 X96.042 Y178.988 E0.27043
G1 X98.845 Y179.898 E0.27043
G1 X101.677 Y180.715 E0.27042
G1 X104.535 Y181.438 E0.27043
G1 X107.414 Y182.066 E0.27043
G1 X110.313 Y182.598 E0.27043
G1 X113.228 Y183.035 E0.27043
G1 X116.156 Y183.375 E0.27043
G1 X119.093 Y183.618 E0.27043
G1 X122.037 Y183.764 E0.27043
G1 X124.984 Y183.813 E0.27043
G1 X127.931 Y183.764 E0.27042
G1 X130.875 Y183.618 E0.27043
G1 X133.812 Y183.375 E0.27043
G1 X136.740 Y183.035 E0.27043
G1 X139.655 Y182.598 E0.27043
G1 X142.553 Y182.066 E0.27043
G1 X145.433 Y181.438 E0.27042
G1 X148.291 Y180.715 E0.27043
G1 X151.123 Y179.898 E0.27042
G1 X153.926 Y178.988 E0.27043
G1 X156.698 Y177.986 E0.27043
G1 X159.435 Y176.893 E0.27043
G1 X162.135 Y175.710 E0.27043
G1 X164.794 Y174.439 E0.27043
G1 X167.409 Y173.080 E0.27043
G1 X169.979 Y171.636 E0.27043
G1 X172.452 Y170.136 E0.26543
G1 X172.562 Y170.084 E0.01113
G1 X172.786 Y170.078 E0.02056
G1 X172.975 Y170.107 E0.01751
G1 X173.157 Y170.165 E0.01751
G1 X173.327 Y170.251 E0.01751
G1 X173.482 Y170.363 E0.01751
G1 X173.617 Y170.497 E0.01751
G1 X173.729 Y170.652 E0.01751
G1 X173.816 Y170.822 E0.01751
G1 X173.913 Y171.253 E0.04060
G1 X174.586 Y179.925 E0.79804
G1 X174.587 Y180.213 E0.02638
G1 X174.553 Y180.457 E0.02261
G1 X174.484 Y180.694 E0.02261
G1 X174.365 Y180.955 E0.02638
G1 X171.751 Y185.751 E0.50114
G1 X174.892 Y184.540 E0.30885
G1 X175.583 Y184.176 E0.07169
G1 X176.226 Y183.730 E0.07178
G1 X176.810 Y183.209 E0.07178
G1 X177.323 Y182.623 E0.07145
G1 X177.766 Y181.972 E0.07229
G1 X178.122 Y181.278 E0.07160
G1 X178.391 Y180.545 E0.07163
G1 X178.569 Y179.780 E0.07201
G1 X178.653 Y178.996 E0.07236
G1 X178.601 Y177.182 E0.16650
G1 X178.649 Y176.135 E0.09614
G1 X178.784 Y175.100 E0.09576
G1 X179.004 Y174.080 E0.09576
G1 X179.308 Y173.081 E0.09576
G1 X179.693 Y172.111 E0.09576
G1 X180.157 Y171.176 E0.09576
G1 X180.696 Y170.283 E0.09577
G1 X181.308 Y169.437 E0.09576
G1 X181.988 Y168.645 E0.09576
G1 X182.730 Y167.912 E0.09576
G1 X183.531 Y167.242 E0.09576
G1 X184.384 Y166.641 E0.09576
G1 X185.285 Y166.113 E0.09576
G1 X186.225 Y165.661 E0.09576
G1 X187.200 Y165.288 E0.09576
G1 X188.203 Y164.997 E0.09576
G1 X189.230 Y164.789 E0.09621
G1 X191.064 Y164.558 E0.16958
G1 X191.868 Y164.336 E0.07651
G1 X192.627 Y164.016 E0.07554
G1 X193.348 Y163.596 E0.07664
G1 X193.987 Y163.104 E0.07397
G1 X194.556 Y162.536 E0.07377
G1 X194.896 Y162.121 E0.04920
G1 X195.340 Y161.444 E0.07428
G1 X195.698 Y160.705 E0.07539
G1 X195.958 Y159.925 E0.07540
G1 X196.110 Y159.147 E0.07269
G1 X196.554 Y155.335 E0.35216
G1 X196.900 Y151.542 E0.34945
G1 X197.152 Y147.742 E0.34945
G1 X197.308 Y143.936 E0.34945
G1 X197.369 Y140.128 E0.34945
G1 X197.334 Y136.319 E0.34945
G1 X197.205 Y132.513 E0.34945
G1 X196.981 Y128.711 E0.34945
G1 X196.661 Y124.915 E0.34945
G1 X196.247 Y121.129 E0.34945
G1 X195.929 Y118.771 E0.21830
G1 X195.738 Y117.355 E0.13116
G1 X195.135 Y113.594 E0.34945
G1 X194.439 Y109.849 E0.34945
G1 X193.649 Y106.124 E0.34945
G1 X192.766 Y102.419 E0.34945
G1 X191.791 Y98.737 E0.34945
G1 X190.724 Y95.081 E0.34945
G1 X189.566 Y91.452 E0.34945
G1 X188.317 Y87.854 E0.34945
G1 X186.980 Y84.288 E0.34945
G1 X185.553 Y80.756 E0.34945
G1 X184.039 Y77.262 E0.34945
G1 X182.438 Y73.806 E0.34945
G1 X180.751 Y70.391 E0.34945
G1 X178.979 Y67.020 E0.34945
G1 X177.123 Y63.693 E0.34945
G1 X175.185 Y60.415 E0.34945
G1 X173.165 Y57.186 E0.34945
G1 X171.066 Y54.008 E0.34945
G1 X168.888 Y50.883 E0.34945
G1 X166.632 Y47.815 E0.34945
G1 X164.300 Y44.803 E0.34945
G1 X161.894 Y41.851 E0.34945
G1 X159.415 Y38.959 E0.34945
G1 X156.864 Y36.131 E0.34945
G1 X154.243 Y33.367 E0.34945
G1 X151.579 Y30.694 E0.34626
G1 X150.984 Y30.053 E0.08029
G1 X150.476 Y29.384 E0.07709
G1 X150.033 Y28.666 E0.07732
G1 X149.899 Y28.394 E0.02791
G1 X149.666 Y27.915 E0.04881
G1 X149.372 Y27.126 E0.07723
G1 X149.156 Y26.314 E0.07709
G1 X149.021 Y25.485 E0.07709
G1 X148.967 Y24.641 E0.07764
G1 X148.994 Y23.810 E0.07620
G1 X149.105 Y22.974 E0.07742
G1 X149.295 Y22.156 E0.07709
G1 X149.564 Y21.360 E0.07709
G1 X149.910 Y20.594 E0.07708
G1 X150.328 Y19.865 E0.07708
G1 X150.822 Y19.172 E0.07809
G1 X151.362 Y18.552 E0.07546
G1 X151.978 Y17.971 E0.07770
G1 X152.642 Y17.456 E0.07708
G1 X153.353 Y17.009 E0.07708
G1 X154.104 Y16.633 E0.07708
G1 X154.889 Y16.332 E0.07707
G1 X155.714 Y16.105 E0.07853
G1 X156.004 Y16.047 E0.02716
G1 X156.517 Y15.967 E0.04758
G1 X157.364 Y15.905 E0.07796
G1 X158.222 Y15.925 E0.07872
G1 X158.506 Y15.951 E0.02615
G1 X159.352 Y16.086 E0.07860
G1 X160.164 Y16.299 E0.07707
G1 X160.960 Y16.593 E0.07785
G1 X161.432 Y16.813 E0.04778
G1 X161.697 Y16.949 E0.02728
G1 X162.425 Y17.394 E0.07834
G1 X163.096 Y17.900 E0.07708
G1 X163.719 Y18.474 E0.07770
G1 X164.267 Y19.087 E0.07546
G1 X164.770 Y19.773 E0.07809
G1 X165.197 Y20.497 E0.07708
G1 X165.552 Y21.258 E0.07708
G1 X165.833 Y22.055 E0.07750
G1 X166.031 Y22.859 E0.07599
G1 X166.153 Y23.698 E0.07777
G1 X166.191 Y24.537 E0.07709
G1 X166.148 Y25.376 E0.07709
G1 X166.023 Y26.209 E0.07731
G1 X165.819 Y27.018 E0.07652
G1 X165.534 Y27.813 E0.07745
G1 X165.175 Y28.572 E0.07709
G1 X164.743 Y29.293 E0.07709
G1 X164.243 Y29.968 E0.07709
G1 X163.695 Y30.575 E0.07508
G1 X163.596 Y30.658 E0.01177
G1 X163.405 Y30.748 E0.01944
G1 X163.300 Y30.767 E0.00976
G1 X163.194 Y30.767 E0.00976
G1 X162.989 Y30.712 E0.01944
G1 X162.897 Y30.659 E0.00976
G1 X162.747 Y30.510 E0.01944
G1 X162.657 Y30.318 E0.01944
G1 X162.638 Y30.107 E0.01944
G1 X162.656 Y30.002 E0.00976
G1 X162.740 Y29.819 E0.01846
G1 X163.411 Y29.046 E0.09391
G1 X163.918 Y28.305 E0.08240
G1 X164.332 Y27.506 E0.08257
G1 X164.649 Y26.655 E0.08337
G1 X164.857 Y25.781 E0.08242
G1 X164.957 Y24.884 E0.08279
G1 X164.947 Y23.982 E0.08279
G1 X164.828 Y23.093 E0.08227
G1 X164.596 Y22.205 E0.08419
G1 X164.267 Y21.376 E0.08188
G1 X163.834 Y20.584 E0.08278
G1 X163.309 Y19.851 E0.08278
G1 X162.697 Y19.187 E0.08278
G1 X162.010 Y18.603 E0.08277
