; generated by PrusaSlicer 2.1.1+ on 2020-03-26 at 20:19:50 UTC

; 

; external perimeters extrusion width = 0.45mm
; perimeters extrusion width = 0.45mm
; infill extrusion width = 0.45mm
; solid infill extrusion width = 0.45mm
; top infill extrusion width = 0.40mm
; first layer extrusion width = 0.42mm

M73 P0 R50
M73 Q0 S50
M201 X1000 Y1000 Z1000 E5000 ; sets maximum accelerations, mm/sec^2
M203 X200 Y200 Z12 E120 ; sets maximum feedrates, mm/sec
M204 P1250 R1250 T1250 ; sets acceleration (P, T) and retract acceleration (R), mm/sec^2
M205 X8.00 Y8.00 Z0.40 E4.50 ; sets the jerk limits, mm/sec
M205 S0 T0 ; sets the minimum extruding and travel feed rate, mm/sec
M107
M862.3 P "MK3S" ; printer model check
M862.1 P0.4 ; nozzle diameter check
M115 U3.8.1 ; tell printer latest fw version
G90 ; use absolute coordinates
M83 ; extruder relative mode
M104 S230 ; set extruder temp
M140 S85 ; set bed temp
M190 S85 ; wait for bed temp
M109 S230 ; wait for extruder temp
G28 W ; home all without mesh bed level
G80 ; mesh bed leveling
G1 Y-3.0 F1000.0 ; go outside print area
G92 E0.0
G1 X60.0 E9.0 F1000.0 ; intro line
M73 Q0 S50
M73 P0 R50
G1 X100.0 E12.5 F1000.0 ; intro line
G92 E0.0
M221 S95
G21 ; set units to millimeters
G90 ; use absolute coordinates
M83 ; use relative distances for extrusion
M900 K45 ; Filament gcode
;BEFORE_LAYER_CHANGE
G92 E0.0
;0.25


G1 E-1.40000 F2100.00000
G1 Z0.200 F10800.000
G1 Z0.250
;AFTER_LAYER_CHANGE
;0.25
G1 Z0.450
G1 X161.642 Y196.829
G1 Z0.250
G1 E1.40000 F2100.00000
M204 S1000
G1 F1200
G1 X156.824 Y197.602 E0.18581
G1 X93.168 Y197.602 E2.42386
G1 X88.202 Y196.786 E0.19163
G1 X72.488 Y188.611 E0.67447
G1 X71.558 Y188.062 E0.04111
G1 X70.630 Y187.381 E0.04383
G1 X69.158 Y185.936 E0.07854
G1 X51.083 Y164.794 E1.05913
G1 X50.479 Y163.851 E0.04266
G1 X49.986 Y162.881 E0.04142
G1 X49.587 Y161.862 E0.04169
G1 X49.301 Y160.858 E0.03975
G1 X43.805 Y136.241 E0.96041
G1 X43.873 Y131.843 E0.16750
G1 X43.941 Y131.359 E0.01859
G1 X54.127 Y95.449 E1.42131
G1 X55.252 Y91.771 E0.14645
G1 X56.532 Y87.941 E0.15376
G1 X81.034 Y20.099 E2.74660
G1 X81.570 Y18.915 E0.04951
G1 X82.106 Y17.978 E0.04107
G1 X82.771 Y17.034 E0.04399
G1 X83.610 Y16.068 E0.04871
G1 X85.229 Y14.657 E0.08178
G1 X86.298 Y13.961 E0.04856
G1 X87.435 Y13.384 E0.04857
G1 X89.470 Y12.686 E0.08192
G1 X90.791 Y12.436 E0.05120
G1 X91.968 Y12.338 E0.04495
G1 X158.000 Y12.338 E2.51436
G1 X159.351 Y12.461 E0.05164
G1 X160.418 Y12.665 E0.04135
G1 X161.527 Y12.987 E0.04399
G1 X162.720 Y13.469 E0.04898
G1 X163.677 Y13.965 E0.04107
G1 X164.649 Y14.591 E0.04399
G1 X165.656 Y15.394 E0.04907
G1 X166.431 Y16.142 E0.04098
G1 X167.188 Y17.023 E0.04427
G1 X167.919 Y18.073 E0.04871
G1 X168.448 Y19.009 E0.04093
G1 X168.916 Y20.053 E0.04357
G1 X193.515 Y88.164 E2.75747
G1 X195.839 Y95.441 E0.29088
G1 X206.046 Y131.309 E1.41999
G1 X206.128 Y131.857 E0.02107
G1 X206.160 Y136.553 E0.17885
G1 X200.680 Y160.803 E0.94664
G1 X200.355 Y161.936 E0.04490
G1 X199.983 Y162.880 E0.03864
G1 X199.489 Y163.849 E0.04142
G1 X198.907 Y164.763 E0.04128
G1 X198.271 Y165.577 E0.03933
G1 X180.027 Y186.769 E1.06477
G1 X178.485 Y188.010 E0.07535
G1 X177.497 Y188.601 E0.04382
G1 X161.695 Y196.801 E0.67791
G1 F8640
G1 X156.824 Y197.602 E-1.13989
G1 X156.000 Y197.602 E-0.19011
G1 E-0.07000 F2100.00000
G1 Z0.450 F10800.000
G1 X158.999 Y193.739
G1 Z0.250
G1 E1.40000 F2100.00000
G1 F1200
G1 X158.560 Y193.810 E0.01691
G1 X158.454 Y190.356 E0.13158
G1 X158.989 Y193.680 E0.12821
G1 F8640
G1 X158.560 Y193.810 E-0.10346
G1 X158.454 Y190.356 E-0.79793
G1 X158.749 Y192.188 E-0.42861
G1 E-0.07000 F2100.00000
G1 Z0.450 F10800.000
G1 X91.513 Y190.356
G1 Z0.250
G1 E1.40000 F2100.00000
G1 F1200
G1 X91.407 Y193.810 E0.13158
G1 X90.969 Y193.739 E0.01691
G1 X91.504 Y190.415 E0.12821
G1 F8640
G1 X91.407 Y193.810 E-0.78418
G1 X90.969 Y193.739 E-0.10253
G1 X91.274 Y191.844 E-0.44329
G1 E-0.07000 F2100.00000
G1 Z0.450 F10800.000
G1 X78.916 Y186.012
G1 Z0.250
G1 E1.40000 F2100.00000
G1 F1200
G1 X76.409 Y180.498 E0.23064
G1 X76.344 Y180.316 E0.00737
G1 X76.314 Y180.149 E0.00645
G1 X76.314 Y179.956 E0.00737
G1 X76.981 Y171.344 E0.32891
G1 X77.034 Y171.141 E0.00800
G1 X77.091 Y171.074 E0.00331
G1 X77.169 Y171.028 E0.00345
G1 X79.523 Y172.442 E0.10458
G1 X82.116 Y173.899 E0.11324
G1 X84.758 Y175.272 E0.11340
G1 X87.445 Y176.557 E0.11340
G1 X90.173 Y177.752 E0.11340
G1 X92.939 Y178.856 E0.11340
G1 X95.740 Y179.869 E0.11340
G1 X98.572 Y180.788 E0.11340
G1 X101.434 Y181.614 E0.11340
G1 X104.321 Y182.344 E0.11340
G1 X107.231 Y182.979 E0.11340
G1 X110.160 Y183.517 E0.11340
G1 X113.105 Y183.958 E0.11340
G1 X116.064 Y184.301 E0.11340
G1 X119.032 Y184.547 E0.11340
G1 X122.006 Y184.695 E0.11340
G1 X124.984 Y184.744 E0.11340
G1 X127.962 Y184.695 E0.11340
G1 X130.936 Y184.547 E0.11340
G1 X133.904 Y184.301 E0.11340
G1 X136.862 Y183.958 E0.11340
G1 X139.808 Y183.517 E0.11340
G1 X142.737 Y182.979 E0.11340
G1 X145.647 Y182.344 E0.11340
G1 X148.534 Y181.614 E0.11340
G1 X151.395 Y180.788 E0.11340
G1 X154.228 Y179.869 E0.11340
G1 X157.029 Y178.856 E0.11340
G1 X159.795 Y177.752 E0.11340
G1 X162.522 Y176.557 E0.11340
G1 X165.209 Y175.272 E0.11340
G1 X167.852 Y173.899 E0.11340
G1 X170.445 Y172.442 E0.11324
G1 X172.799 Y171.028 E0.10458
G1 X172.877 Y171.074 E0.00345
G1 X172.934 Y171.141 E0.00332
G1 X172.988 Y171.371 E0.00901
G1 X173.655 Y179.965 E0.32822
G1 X173.640 Y180.262 E0.01131
G1 X173.532 Y180.538 E0.01131
G1 X170.456 Y186.180 E0.24468
G1 X166.850 Y187.124 E0.14194
G1 X163.157 Y188.003 E0.14458
G1 X158.108 Y189.090 E0.19665
G1 X152.859 Y190.011 E0.20291
G1 X148.905 Y190.611 E0.15229
G1 X144.937 Y191.119 E0.15229
G1 X140.960 Y191.535 E0.15229
G1 X136.973 Y191.859 E0.15229
G1 X132.980 Y192.090 E0.15229
G1 X128.983 Y192.229 E0.15229
G1 X124.984 Y192.276 E0.15229
G1 X120.985 Y192.229 E0.15229
G1 X116.987 Y192.090 E0.15229
G1 X112.995 Y191.859 E0.15229
G1 X109.008 Y191.535 E0.15229
G1 X105.030 Y191.119 E0.15229
G1 X101.063 Y190.611 E0.15229
G1 X97.109 Y190.011 E0.15229
G1 X91.860 Y189.090 E0.20291
G1 X86.811 Y188.003 E0.19665
G1 X83.118 Y187.124 E0.14458
G1 X78.974 Y186.028 E0.16320
G1 X78.653 Y186.318 F10800.000
G1 F1200
G1 X76.070 Y180.636 E0.23765
G1 X75.988 Y180.411 E0.00913
G1 X75.948 Y180.182 E0.00884
G1 X75.947 Y179.942 E0.00913
G1 X76.617 Y171.301 E0.33002
G1 X76.675 Y171.039 E0.01023
G1 X76.781 Y170.866 E0.00771
G1 X76.935 Y170.735 E0.00771
G1 X77.123 Y170.658 E0.00771
G1 X77.239 Y170.643 E0.00446
G1 X79.707 Y172.125 E0.10964
G1 X82.290 Y173.577 E0.11280
G1 X84.922 Y174.944 E0.11294
G1 X87.598 Y176.224 E0.11294
G1 X90.315 Y177.414 E0.11294
G1 X93.069 Y178.514 E0.11294
G1 X95.859 Y179.522 E0.11294
G1 X98.680 Y180.438 E0.11294
G1 X101.530 Y181.260 E0.11294
G1 X104.405 Y181.987 E0.11294
G1 X107.303 Y182.619 E0.11294
G1 X110.220 Y183.155 E0.11294
G1 X113.154 Y183.595 E0.11294
G1 X116.100 Y183.937 E0.11294
G1 X119.056 Y184.182 E0.11294
G1 X122.018 Y184.328 E0.11294
G1 X124.984 Y184.377 E0.11294
G1 X127.950 Y184.328 E0.11294
G1 X130.912 Y184.182 E0.11294
G1 X133.868 Y183.937 E0.11294
G1 X136.814 Y183.595 E0.11294
G1 X139.747 Y183.155 E0.11294
G1 X142.665 Y182.619 E0.11294
G1 X145.563 Y181.987 E0.11294
G1 X148.438 Y181.260 E0.11294
G1 X151.288 Y180.438 E0.11294
G1 X154.109 Y179.522 E0.11294
G1 X156.899 Y178.514 E0.11294
G1 X159.653 Y177.414 E0.11294
G1 X162.370 Y176.224 E0.11294
G1 X165.046 Y174.944 E0.11294
G1 X167.678 Y173.577 E0.11294
G1 X170.261 Y172.125 E0.11281
G1 X172.729 Y170.643 E0.10964
G1 X172.942 Y170.689 E0.00830
G1 X173.115 Y170.794 E0.00771
G1 X173.187 Y170.866 E0.00387
G1 X173.293 Y171.039 E0.00771
G1 X173.352 Y171.323 E0.01107
G1 X174.021 Y179.950 E0.32946
G1 X174.022 Y180.175 E0.00859
G1 X174.000 Y180.338 E0.00628
G1 X173.953 Y180.497 E0.00628
G1 X173.860 Y180.702 E0.00859
G1 X170.704 Y186.492 E0.25111
G1 X166.939 Y187.479 E0.14819
G1 X163.238 Y188.361 E0.14488
G1 X158.178 Y189.449 E0.19707
G1 X152.918 Y190.372 E0.20334
G1 X148.955 Y190.973 E0.15262
G1 X144.980 Y191.483 E0.15262
G1 X140.993 Y191.900 E0.15262
G1 X136.999 Y192.224 E0.15262
G1 X132.997 Y192.456 E0.15262
G1 X128.992 Y192.595 E0.15262
G1 X124.984 Y192.642 E0.15262
G1 X120.976 Y192.595 E0.15262
G1 X116.970 Y192.456 E0.15262
G1 X112.969 Y192.224 E0.15262
G1 X108.974 Y191.900 E0.15262
G1 X104.988 Y191.483 E0.15262
G1 X101.012 Y190.973 E0.15262
G1 X97.050 Y190.372 E0.15262
G1 X91.790 Y189.449 E0.20334
G1 X86.730 Y188.361 E0.19707
G1 X83.029 Y187.479 E0.14488
G1 X78.711 Y186.334 E0.17011
G1 F8640
G1 X76.288 Y181.108 E-1.33000
G1 E-0.07000 F2100.00000
G1 Z0.450 F10800.000
G1 X173.370 Y185.732
G1 Z0.250
G1 E1.40000 F2100.00000
M73 Q2 S49
G1 F1200
G1 X175.132 Y185.052 E0.07192
G1 X175.883 Y184.657 E0.03231
G1 X176.581 Y184.171 E0.03240
G1 X177.215 Y183.604 E0.03240
G1 X177.772 Y182.967 E0.03218
G1 X178.254 Y182.257 E0.03271
G1 X178.641 Y181.502 E0.03231
G1 X178.933 Y180.705 E0.03230
G1 X179.127 Y179.873 E0.03254
G1 X179.218 Y179.017 E0.03276
G1 X179.166 Y177.187 E0.06973
G1 X179.213 Y176.185 E0.03819
G1 X179.341 Y175.197 E0.03796
G1 X179.551 Y174.222 E0.03796
G1 X179.841 Y173.268 E0.03796
G1 X180.209 Y172.341 E0.03796
G1 X180.652 Y171.448 E0.03796
G1 X181.168 Y170.595 E0.03796
G1 X181.752 Y169.787 E0.03796
G1 X182.401 Y169.030 E0.03796
G1 X183.110 Y168.330 E0.03796
G1 X183.875 Y167.690 E0.03796
G1 X184.690 Y167.116 E0.03796
G1 X185.550 Y166.612 E0.03796
M73 P2 R49
G1 X186.449 Y166.180 E0.03796
G1 X187.380 Y165.824 E0.03796
G1 X188.338 Y165.546 E0.03796
G1 X189.322 Y165.347 E0.03823
G1 X191.169 Y165.114 E0.07091
G1 X191.740 Y164.961 E0.02251
G1 X192.045 Y164.873 E0.01209
G1 X192.579 Y164.656 E0.02192
G1 X192.869 Y164.528 E0.01209
G1 X193.371 Y164.246 E0.02191
G1 X193.654 Y164.072 E0.01266
G1 X194.341 Y163.547 E0.03291
G1 X194.957 Y162.936 E0.03304
G1 X195.363 Y162.442 E0.02436
G1 X195.840 Y161.709 E0.03330
G1 X196.226 Y160.908 E0.03386
G1 X196.507 Y160.064 E0.03387
G1 X196.669 Y159.233 E0.03222
G1 X197.116 Y155.393 E0.14721
G1 X197.463 Y151.586 E0.14556
G1 X197.716 Y147.772 E0.14556
G1 X197.872 Y143.952 E0.14556
G1 X197.933 Y140.130 E0.14556
G1 X197.899 Y136.307 E0.14556
G1 X197.769 Y132.487 E0.14557
G1 X197.544 Y128.670 E0.14556
G1 X197.223 Y124.861 E0.14556
G1 X196.808 Y121.061 E0.14556
G1 X196.457 Y118.462 E0.09986
G1 X196.297 Y117.272 E0.04571
G1 X195.692 Y113.498 E0.14556
G1 X194.993 Y109.739 E0.14556
G1 X194.200 Y106.000 E0.14556
G1 X193.314 Y102.281 E0.14556
G1 X192.335 Y98.585 E0.14556
G1 X191.264 Y94.916 E0.14556
G1 X190.102 Y91.274 E0.14556
G1 X188.849 Y87.662 E0.14556
G1 X187.506 Y84.083 E0.14556
G1 X186.074 Y80.538 E0.14556
G1 X184.554 Y77.031 E0.14556
G1 X182.947 Y73.562 E0.14556
G1 X181.254 Y70.135 E0.14556
G1 X179.475 Y66.751 E0.14556
G1 X177.613 Y63.412 E0.14556
G1 X175.667 Y60.121 E0.14556
G1 X173.641 Y56.880 E0.14556
G1 X171.533 Y53.691 E0.14556
G1 X169.347 Y50.555 E0.14556
G1 X167.083 Y47.474 E0.14556
G1 X164.742 Y44.452 E0.14556
G1 X162.327 Y41.488 E0.14556
G1 X159.839 Y38.586 E0.14556
G1 X157.279 Y35.747 E0.14556
G1 X154.648 Y32.973 E0.14556
G1 X151.986 Y30.302 E0.14361
G1 X151.416 Y29.688 E0.03189
G1 X150.941 Y29.062 E0.02993
G1 X150.526 Y28.389 E0.03009
G1 X150.184 Y27.688 E0.02971
G1 X149.909 Y26.950 E0.03000
G1 X149.708 Y26.190 E0.02993
G1 X149.582 Y25.414 E0.02993
G1 X149.532 Y24.620 E0.03030
G1 X149.536 Y24.405 E0.00817
G1 X149.559 Y23.849 E0.02122
G1 X149.663 Y23.065 E0.03010
G1 X149.842 Y22.299 E0.02993
G1 X150.095 Y21.555 E0.02993
G1 X150.419 Y20.839 E0.02993
G1 X150.812 Y20.158 E0.02993
G1 X151.279 Y19.504 E0.03061
G1 X151.415 Y19.343 E0.00803
G1 X151.780 Y18.933 E0.02091
G1 X152.359 Y18.389 E0.03024
G1 X152.981 Y17.909 E0.02993
G1 X153.647 Y17.492 E0.02993
G1 X154.351 Y17.142 E0.02993
G1 X155.086 Y16.863 E0.02993
G1 X155.869 Y16.649 E0.03091
G1 X156.607 Y16.525 E0.02849
G1 X157.403 Y16.469 E0.03038
G1 X158.410 Y16.509 E0.03840
G1 X159.213 Y16.635 E0.03095
G1 X159.974 Y16.832 E0.02992
G1 X160.722 Y17.105 E0.03032
G1 X161.401 Y17.431 E0.02868
G1 X162.092 Y17.851 E0.03078
G1 X162.720 Y18.323 E0.02993
G1 X163.306 Y18.860 E0.03024
G1 X163.677 Y19.265 E0.02091
G1 X163.814 Y19.425 E0.00803
G1 X164.290 Y20.073 E0.03061
G1 X164.691 Y20.749 E0.02993
G1 X165.024 Y21.460 E0.02993
G1 X165.289 Y22.207 E0.03014
G1 X165.474 Y22.952 E0.02926
G1 X165.589 Y23.742 E0.03039
G1 X165.626 Y24.527 E0.02993
G1 X165.586 Y25.312 E0.02993
G1 X165.470 Y26.093 E0.03004
G1 X165.281 Y26.846 E0.02958
G1 X165.014 Y27.592 E0.03017
G1 X164.678 Y28.303 E0.02993
G1 X164.274 Y28.977 E0.02993
G1 X163.806 Y29.609 E0.02993
G1 X163.301 Y30.169 E0.02870
G1 X163.257 Y30.201 E0.00208
G1 X163.215 Y30.190 E0.00165
G1 X163.205 Y30.145 E0.00174
G1 X163.858 Y29.394 E0.03790
G1 X164.402 Y28.599 E0.03669
G1 X164.847 Y27.740 E0.03682
G1 X165.189 Y26.822 E0.03728
G1 X165.413 Y25.885 E0.03668
G1 X165.521 Y24.922 E0.03693
G1 X165.512 Y23.952 E0.03693
G1 X165.386 Y22.997 E0.03667
G1 X165.228 Y22.366 E0.02477
G1 X165.136 Y22.037 E0.01302
G1 X164.785 Y21.149 E0.03633
G1 X164.322 Y20.297 E0.03693
G1 X163.759 Y19.508 E0.03693
G1 X163.104 Y18.793 E0.03693
G1 X162.367 Y18.163 E0.03693
G1 X161.569 Y17.635 E0.03644
G1 X160.663 Y17.185 E0.03849
G1 X159.777 Y16.871 E0.03582
G1 X158.830 Y16.660 E0.03692
G1 X157.881 Y16.568 E0.03632
G1 X157.176 Y16.572 E0.02686
G1 X156.228 Y16.677 E0.03632
G1 X155.284 Y16.899 E0.03692
G1 X154.374 Y17.235 E0.03692
G1 X153.512 Y17.679 E0.03692
G1 X152.710 Y18.224 E0.03692
G1 X151.981 Y18.864 E0.03692
G1 X151.335 Y19.587 E0.03693
G1 X150.782 Y20.383 E0.03693
G1 X150.330 Y21.241 E0.03693
G1 X149.985 Y22.148 E0.03693
G1 X149.754 Y23.090 E0.03693
G1 X149.639 Y24.053 E0.03693
G1 X149.642 Y25.023 E0.03693
G1 X149.763 Y25.985 E0.03693
G1 X149.998 Y26.919 E0.03668
G1 X150.351 Y27.832 E0.03728
G1 X150.808 Y28.685 E0.03682
G1 X151.366 Y29.478 E0.03693
G1 X151.975 Y30.152 E0.03459
G1 X154.657 Y32.840 E0.14460
G1 X157.230 Y35.549 E0.14226
G1 X159.736 Y38.320 E0.14226
G1 X162.174 Y41.151 E0.14226
G1 X164.542 Y44.041 E0.14227
G1 X166.838 Y46.988 E0.14225
G1 X169.063 Y49.990 E0.14227
G1 X171.213 Y53.045 E0.14226
G1 X173.288 Y56.152 E0.14226
G1 X175.286 Y59.309 E0.14228
G1 X175.883 Y60.303 E0.04413
G1 X177.207 Y62.513 E0.09810
G1 X179.049 Y65.764 E0.14227
G1 X180.811 Y69.058 E0.14226
G1 X182.492 Y72.395 E0.14226
G1 X184.092 Y75.771 E0.14226
G1 X185.608 Y79.186 E0.14226
G1 X187.041 Y82.636 E0.14226
G1 X188.389 Y86.121 E0.14226
G1 X189.651 Y89.637 E0.14226
G1 X190.827 Y93.183 E0.14226
G1 X191.917 Y96.757 E0.14226
G1 X192.919 Y100.357 E0.14230
G1 X193.832 Y103.978 E0.14220
G1 X194.657 Y107.622 E0.14228
G1 X195.393 Y111.285 E0.14226
G1 X196.039 Y114.965 E0.14226
G1 X196.595 Y118.660 E0.14226
G1 X197.061 Y122.367 E0.14226
G1 X197.436 Y126.084 E0.14226
G1 X197.720 Y129.809 E0.14226
G1 X197.969 Y134.616 E0.18327
G1 X198.033 Y139.121 E0.17156
G1 X198.006 Y142.476 E0.12779
G1 X197.906 Y145.831 E0.12779
G1 X197.733 Y149.183 E0.12779
G1 X197.486 Y152.530 E0.12779
G1 X197.165 Y155.870 E0.12779
G1 X196.776 Y159.170 E0.12650
G1 X196.640 Y159.915 E0.02884
G1 X196.438 Y160.609 E0.02754
G1 X196.078 Y161.456 E0.03502
G1 X195.831 Y161.913 E0.01980
G1 X195.424 Y162.519 E0.02780
G1 X194.830 Y163.214 E0.03482
G1 X194.274 Y163.726 E0.02878
G1 X193.694 Y164.159 E0.02754
G1 X193.068 Y164.533 E0.02780
G1 X192.598 Y164.756 E0.01980
G1 X191.734 Y165.071 E0.03502
G1 X191.032 Y165.235 E0.02746
G1 X189.213 Y165.462 E0.06980
G1 X188.135 Y165.697 E0.04201
G1 X187.081 Y166.031 E0.04209
G1 X186.063 Y166.460 E0.04209
G1 X185.089 Y166.982 E0.04209
G1 X184.167 Y167.592 E0.04209
G1 X183.305 Y168.284 E0.04209
G1 X182.511 Y169.053 E0.04209
G1 X181.791 Y169.892 E0.04209
G1 X181.152 Y170.794 E0.04209
G1 X180.600 Y171.751 E0.04209
G1 X180.137 Y172.755 E0.04209
G1 X179.770 Y173.798 E0.04209
G1 X179.500 Y174.870 E0.04209
G1 X179.331 Y175.962 E0.04209
G1 X179.263 Y177.063 E0.04201
G1 X179.316 Y178.891 E0.06964
G1 X179.261 Y179.606 E0.02731
G1 X179.134 Y180.314 E0.02739
G1 X178.935 Y181.006 E0.02739
G1 X178.666 Y181.673 E0.02739
G1 X178.317 Y182.334 E0.02846
G1 X177.797 Y183.085 E0.03480
G1 X177.317 Y183.633 E0.02772
G1 X176.812 Y184.104 E0.02632
G1 X176.222 Y184.550 E0.02814
G1 X175.607 Y184.922 E0.02739
