; generated by PrusaSlicer 2.1.1+ on 2020-03-29 at 19:33:36 UTC

; 

; external perimeters extrusion width = 0.80mm
; perimeters extrusion width = 0.80mm
; infill extrusion width = 0.80mm
; solid infill extrusion width = 0.80mm
; top infill extrusion width = 0.80mm
; first layer extrusion width = 0.80mm

M73 P0 R113
M73 Q0 S116
M201 X1000 Y1000 Z1000 E5000 ; sets maximum accelerations, mm/sec^2
M203 X200 Y200 Z12 E120 ; sets maximum feedrates, mm/sec
M204 P1250 R1250 T1250 ; sets acceleration (P, T) and retract acceleration (R), mm/sec^2
M205 X8.00 Y8.00 Z0.40 E4.50 ; sets the jerk limits, mm/sec
M205 S0 T0 ; sets the minimum extruding and travel feed rate, mm/sec
M107
M862.3 P "MK3S" ; printer model check
M862.1 P0.8 ; nozzle diameter check
M115 U3.8.1 ; tell printer latest fw version
G90 ; use absolute coordinates
M83 ; extruder relative mode
M104 S240 ; set extruder temp
M140 S85 ; set bed temp
M190 S85 ; wait for bed temp
M109 S240 ; wait for extruder temp
G28 W ; home all without mesh bed level
G80 ; mesh bed leveling
G1 Y-3.0 F1000.0 ; go outside print area
G92 E0.0
G1 X60.0 E9.0 F1000.0 ; intro line
M73 Q0 S116
M73 P0 R113
G1 X100.0 E12.5 F1000.0 ; intro line
G92 E0.0
M221 S95
G21 ; set units to millimeters
G90 ; use absolute coordinates
M83 ; use relative distances for extrusion
M900 K45 ; Filament gcode
;BEFORE_LAYER_CHANGE
G92 E0.0
;0.3


G1 E-1.40000 F2100.00000
G1 Z0.200 F10800.000
G1 Z0.300
;AFTER_LAYER_CHANGE
;0.3
G1 Z0.500
G1 X35.966 Y34.560
G1 Z0.300
G1 E1.40000 F2100.00000
M204 S1000
G1 F1200
G1 X36.475 Y34.230 E0.06122
G1 X36.973 Y34.056 E0.05322
G1 X37.497 Y33.996 E0.05322
G1 X212.436 Y33.996 E17.65582
G1 X213.305 Y34.137 E0.08886
G1 X214.060 Y34.583 E0.08850
G1 X214.601 Y35.273 E0.08850
G1 X214.854 Y36.112 E0.08850
G1 X222.119 Y120.484 E8.54676
G1 X222.094 Y121.305 E0.08284
G1 X221.892 Y122.138 E0.08656
G1 X221.414 Y123.081 E0.10671
G1 X220.927 Y123.673 E0.07734
G1 X198.874 Y146.479 E3.20180
G1 X194.454 Y150.816 E0.62497
G1 X192.044 Y152.972 E0.32632
G1 X187.249 Y156.880 E0.62439
G1 X184.647 Y158.809 E0.32687
G1 X156.455 Y178.034 E3.44389
G1 X155.424 Y178.408 E0.11064
G1 X154.557 Y178.504 E0.08808
G1 X95.437 Y178.503 E5.96677
G1 X94.689 Y178.433 E0.07574
G1 X93.910 Y178.204 E0.08198
G1 X93.242 Y177.860 E0.07584
G1 X65.356 Y158.811 E3.40839
G1 X62.751 Y156.880 E0.32721
G1 X57.962 Y152.977 E0.62350
G1 X55.546 Y150.816 E0.32721
G1 X51.134 Y146.486 E0.62389
G1 X29.082 Y123.683 E3.20156
G1 X28.668 Y123.203 E0.06392
G1 X28.296 Y122.590 E0.07243
G1 X27.928 Y121.439 E0.12194
G1 X27.881 Y120.488 E0.09609
G1 X35.142 Y36.146 E8.54372
G1 X35.275 Y35.554 E0.06122
G1 X35.556 Y35.012 E0.06160
G1 X35.886 Y34.649 E0.04949
G1 F8640
G1 X36.475 Y34.230 E-0.16700
G1 X36.973 Y34.056 E-0.12176
G1 X37.497 Y33.996 E-0.12176
G1 X41.479 Y33.996 E-0.91948
G1 E-0.07000 F2100.00000
G1 Z0.500 F10800.000
G1 X42.805 Y79.558
G1 Z0.300
G1 E1.40000 F2100.00000
G1 F1200
G1 X42.715 Y79.651 E0.01312
G1 X42.870 Y79.915 E0.03086
G1 X42.772 Y79.987 E0.01221
G1 X42.891 Y80.282 E0.03212
G1 X42.817 Y80.320 E0.00834
G1 X43.529 Y82.340 E0.21615
G1 X44.482 Y84.774 E0.26385
G1 X45.518 Y87.175 E0.26385
G1 X46.635 Y89.538 E0.26384
G1 X47.833 Y91.862 E0.26385
G1 X48.216 Y92.547 E0.07924
G1 X49.110 Y94.143 E0.18461
G1 X50.464 Y96.379 E0.26384
G1 X51.894 Y98.568 E0.26385
G1 X53.398 Y100.706 E0.26384
G1 X54.975 Y102.791 E0.26385
G1 X56.622 Y104.821 E0.26384
G1 X58.338 Y106.794 E0.26385
G1 X60.120 Y108.706 E0.26385
G1 X60.675 Y109.262 E0.07924
G1 X61.967 Y110.556 E0.18461
G1 X63.876 Y112.342 E0.26385
G1 X65.846 Y114.061 E0.26384
G1 X67.873 Y115.712 E0.26385
G1 X69.955 Y117.293 E0.26385
G1 X72.091 Y118.800 E0.26385
G1 X74.277 Y120.234 E0.26385
G1 X74.948 Y120.642 E0.07924
G1 X76.510 Y121.593 E0.18461
G1 X78.790 Y122.873 E0.26385
G1 X81.111 Y124.075 E0.26388
G1 X83.847 Y125.381 E0.30596
G1 X86.623 Y126.602 E0.30599
G1 X89.434 Y127.737 E0.30599
G1 X92.279 Y128.785 E0.30599
G1 X95.154 Y129.746 E0.30599
G1 X98.058 Y130.618 E0.30599
G1 X100.987 Y131.400 E0.30599
G1 X103.939 Y132.092 E0.30599
G1 X106.911 Y132.693 E0.30599
G1 X109.900 Y133.203 E0.30599
G1 X112.903 Y133.620 E0.30599
G1 X115.917 Y133.946 E0.30599
G1 X118.940 Y134.178 E0.30599
G1 X119.849 Y134.220 E0.09187
G1 X121.968 Y134.318 E0.21412
G1 X125.000 Y134.364 E0.30599
G1 X128.031 Y134.318 E0.30599
G1 X131.060 Y134.178 E0.30599
G1 X134.083 Y133.946 E0.30599
G1 X137.097 Y133.620 E0.30599
G1 X140.100 Y133.203 E0.30599
G1 X143.089 Y132.693 E0.30599
G1 X146.061 Y132.092 E0.30599
G1 X149.013 Y131.400 E0.30599
G1 X151.942 Y130.618 E0.30599
G1 X154.846 Y129.746 E0.30599
G1 X157.721 Y128.785 E0.30599
G1 X160.566 Y127.737 E0.30599
G1 X163.377 Y126.602 E0.30599
G1 X166.153 Y125.381 E0.30599
G1 X168.889 Y124.075 E0.30596
G1 X171.210 Y122.873 E0.26388
G1 X173.490 Y121.593 E0.26385
G1 X175.723 Y120.234 E0.26384
G1 X177.909 Y118.800 E0.26384
G1 X180.045 Y117.293 E0.26385
G1 X182.127 Y115.712 E0.26385
G1 X184.154 Y114.061 E0.26385
G1 X186.124 Y112.342 E0.26384
G1 X188.033 Y110.556 E0.26385
G1 X189.880 Y108.706 E0.26384
G1 X190.415 Y108.132 E0.07924
G1 X191.662 Y106.794 E0.18460
G1 X193.378 Y104.821 E0.26385
G1 X195.025 Y102.791 E0.26385
G1 X196.602 Y100.706 E0.26385
G1 X198.106 Y98.568 E0.26384
G1 X199.536 Y96.379 E0.26385
G1 X200.890 Y94.143 E0.26384
G1 X202.167 Y91.862 E0.26384
G1 X203.365 Y89.538 E0.26385
G1 X204.482 Y87.175 E0.26384
G1 X205.518 Y84.774 E0.26385
G1 X206.471 Y82.340 E0.26385
G1 X207.181 Y80.326 E0.21551
G1 X207.120 Y80.297 E0.00677
G1 X207.224 Y80.003 E0.03142
G1 X207.157 Y79.960 E0.00805
G1 X207.284 Y79.663 E0.03256
G1 X207.190 Y79.567 E0.01359
G1 X207.661 Y79.006 E0.07394
G1 X207.921 Y78.801 E0.03340
G1 X208.204 Y78.645 E0.03264
G1 X208.510 Y78.538 E0.03264
G1 X208.828 Y78.483 E0.03264
G1 X209.159 Y78.481 E0.03333
G1 X209.540 Y78.557 E0.03927
G1 X209.777 Y78.637 E0.02526
G1 X210.062 Y78.790 E0.03264
G1 X210.318 Y78.988 E0.03265
G1 X210.538 Y79.225 E0.03264
G1 X210.715 Y79.496 E0.03264
G1 X210.846 Y79.792 E0.03264
G1 X210.925 Y80.105 E0.03264
G1 X210.950 Y80.403 E0.03012
G1 X210.950 Y88.119 E0.77880
G1 X210.902 Y90.986 E0.28939
G1 X210.758 Y93.855 E0.28990
G1 X210.518 Y96.718 E0.28990
G1 X210.183 Y99.570 E0.28990
G1 X209.882 Y101.558 E0.20288
G1 X209.753 Y102.410 E0.08702
G1 X209.228 Y105.234 E0.28990
G1 X208.609 Y108.039 E0.28990
G1 X207.896 Y110.822 E0.28990
G1 X207.091 Y113.579 E0.28990
G1 X206.194 Y116.308 E0.28990
G1 X205.207 Y119.005 E0.28990
G1 X204.130 Y121.668 E0.28990
G1 X202.965 Y124.294 E0.28990
G1 X201.712 Y126.879 E0.28990
G1 X200.374 Y129.420 E0.28990
G1 X198.952 Y131.916 E0.28990
G1 X197.898 Y133.628 E0.20288
G1 X197.447 Y134.363 E0.08702
G1 X195.861 Y136.757 E0.28990
G1 X194.196 Y139.098 E0.28990
G1 X192.977 Y140.696 E0.20288
G1 X192.454 Y141.382 E0.08702
G1 X190.636 Y143.606 E0.28990
G1 X188.745 Y145.768 E0.28990
G1 X186.783 Y147.866 E0.28990
G1 X184.752 Y149.897 E0.28990
G1 X182.654 Y151.859 E0.28990
G1 X181.141 Y153.183 E0.20288
G1 X180.492 Y153.750 E0.08702
G1 X178.268 Y155.568 E0.28990
G1 X175.984 Y157.310 E0.28990
G1 X173.643 Y158.975 E0.28990
G1 X171.248 Y160.561 E0.28990
G1 X168.802 Y162.066 E0.28990
G1 X167.055 Y163.061 E0.20288
G1 X166.306 Y163.488 E0.08702
G1 X163.764 Y164.826 E0.28990
G1 X161.179 Y166.079 E0.28990
G1 X158.554 Y167.244 E0.28990
G1 X155.891 Y168.321 E0.28990
G1 X153.194 Y169.309 E0.28990
G1 X150.465 Y170.205 E0.28990
G1 X148.535 Y170.769 E0.20288
G1 X147.708 Y171.010 E0.08702
G1 X144.925 Y171.723 E0.28990
G1 X142.120 Y172.342 E0.28990
G1 X139.296 Y172.867 E0.28990
G1 X136.456 Y173.297 E0.28990
G1 X133.603 Y173.633 E0.28990
G1 X130.741 Y173.872 E0.28990
G1 X127.872 Y174.016 E0.28990
G1 X125.000 Y174.064 E0.28990
G1 X122.128 Y174.016 E0.28990
G1 X119.259 Y173.872 E0.28990
G1 X116.397 Y173.633 E0.28990
G1 X113.544 Y173.297 E0.28990
G1 X111.556 Y172.996 E0.20288
G1 X110.704 Y172.867 E0.08702
G1 X107.880 Y172.342 E0.28990
G1 X105.075 Y171.723 E0.28990
G1 X102.292 Y171.010 E0.28990
G1 X99.535 Y170.205 E0.28990
G1 X96.806 Y169.309 E0.28990
G1 X94.109 Y168.321 E0.28990
G1 X91.446 Y167.244 E0.28990
G1 X88.821 Y166.079 E0.28990
G1 X86.236 Y164.826 E0.28990
G1 X83.694 Y163.488 E0.28990
G1 X81.198 Y162.066 E0.28990
G1 X78.752 Y160.561 E0.28990
G1 X76.357 Y158.975 E0.28990
G1 X74.016 Y157.310 E0.28990
G1 X71.732 Y155.568 E0.28990
G1 X69.508 Y153.750 E0.28990
G1 X67.346 Y151.859 E0.28990
G1 X65.878 Y150.486 E0.20288
G1 X65.248 Y149.897 E0.08702
G1 X63.217 Y147.866 E0.28990
G1 X61.255 Y145.768 E0.28990
G1 X59.364 Y143.606 E0.28990
G1 X57.546 Y141.382 E0.28990
G1 X55.804 Y139.098 E0.28990
G1 X54.639 Y137.460 E0.20288
G1 X54.139 Y136.757 E0.08702
G1 X52.553 Y134.363 E0.28990
G1 X51.048 Y131.916 E0.28990
G1 X50.053 Y130.169 E0.20288
G1 X49.626 Y129.420 E0.08702
G1 X48.288 Y126.879 E0.28990
G1 X47.035 Y124.294 E0.28990
G1 X45.870 Y121.668 E0.28990
G1 X44.793 Y119.005 E0.28990
G1 X44.102 Y117.118 E0.20288
G1 X43.806 Y116.308 E0.08702
G1 X42.909 Y113.579 E0.28990
G1 X42.104 Y110.822 E0.28990
G1 X41.391 Y108.039 E0.28990
G1 X40.772 Y105.234 E0.28990
G1 X40.247 Y102.410 E0.28990
G1 X39.817 Y99.570 E0.28990
G1 X39.482 Y96.718 E0.28990
G1 X39.242 Y93.855 E0.28990
G1 X39.098 Y90.986 E0.28990
G1 X39.050 Y88.119 E0.28939
G1 X39.050 Y80.403 E0.77880
G1 X39.075 Y80.105 E0.03012
G1 X39.154 Y79.792 E0.03264
G1 X39.285 Y79.496 E0.03264
G1 X39.462 Y79.225 E0.03264
G1 X39.682 Y78.988 E0.03264
G1 X39.938 Y78.790 E0.03264
G1 X40.223 Y78.637 E0.03264
G1 X40.529 Y78.533 E0.03264
G1 X40.848 Y78.481 E0.03264
G1 X41.172 Y78.483 E0.03264
G1 X41.490 Y78.538 E0.03264
G1 X41.796 Y78.645 E0.03264
G1 X42.079 Y78.801 E0.03264
G1 X42.338 Y79.006 E0.03334
G1 X42.728 Y79.466 E0.06088
G1 X42.898 Y79.649 F10800.000
G1 F8640
G1 X42.715 Y79.651 E-0.04290
G1 X42.870 Y79.915 E-0.07060
G1 X42.772 Y79.987 E-0.02794
G1 X42.891 Y80.282 E-0.07349
G1 X42.817 Y80.320 E-0.01909
G1 X43.529 Y82.340 E-0.49451
G1 X44.479 Y84.766 E-0.60146
G1 E-0.07000 F2100.00000
G1 Z0.500 F10800.000
G1 X209.442 Y77.038
G1 Z0.300
G1 E1.40000 F2100.00000
M73 Q0 S115
M73 P0 R112
G1 F1200
G1 X210.079 Y74.654 E0.24900
G1 X210.079 Y77.186 E0.25550
G1 X209.921 Y77.132 E0.01686
G1 X209.560 Y77.061 E0.03711
G1 F8640
G1 X210.079 Y74.654 E-0.56850
G1 X210.079 Y77.186 E-0.58454
G1 X209.921 Y77.132 E-0.03857
G1 X209.560 Y77.061 E-0.08490
G1 E-0.12348 F2100.00000
G1 Z0.500 F10800.000
G1 X208.764 Y77.748
G1 Z0.300
G1 E1.40000 F2100.00000
G1 F1200
G1 X208.439 Y77.804 E0.03324
G1 X208.751 Y76.783 E0.10767
G1 X209.435 Y74.212 E0.26859
G1 X210.030 Y71.619 E0.26851
G1 X210.535 Y69.006 E0.26851
G1 X210.814 Y67.231 E0.18144
G1 X210.814 Y78.442 E1.13149
G1 X210.464 Y78.171 E0.04468
G1 X210.071 Y77.960 E0.04499
G1 X209.730 Y77.844 E0.03633
G1 X209.229 Y77.745 E0.05161
G1 X208.884 Y77.747 E0.03484
G1 F8640
G1 X208.439 Y77.804 E-0.10347
G1 X208.751 Y76.783 E-0.24634
G1 X209.435 Y74.212 E-0.61450
G1 X209.789 Y72.668 E-0.36569
G1 E-0.07000 F2100.00000
G1 Z0.500 F10800.000
G1 X193.066 Y142.958
G1 Z0.300
G1 E1.40000 F2100.00000
G1 F1200
G1 X193.309 Y143.296 E0.04203
G1 X193.721 Y143.701 E0.05832
G1 X194.195 Y144.032 E0.05833
G1 X194.443 Y144.149 E0.02768
G1 X193.349 Y145.257 E0.15717
G1 X191.168 Y147.332 E0.30385
G1 X188.924 Y149.339 E0.30387
G1 X186.619 Y151.276 E0.30386
G1 X184.255 Y153.141 E0.30386
G1 X181.835 Y154.933 E0.30393
G1 X179.361 Y156.648 E0.30375
G1 X178.803 Y157.010 E0.06717
G1 X179.179 Y156.723 E0.04779
G1 X181.442 Y154.874 E0.29486
G1 X183.641 Y152.951 E0.29486
G1 X185.775 Y150.955 E0.29486
G1 X187.841 Y148.889 E0.29486
G1 X189.836 Y146.755 E0.29486
G1 X191.760 Y144.556 E0.29486
G1 X192.990 Y143.051 E0.19620
G1 F8640
G1 X193.309 Y143.296 E-0.09293
G1 X193.721 Y143.701 E-0.13344
G1 X194.195 Y144.032 E-0.13346
G1 X194.443 Y144.149 E-0.06333
G1 X193.349 Y145.257 E-0.35958
G1 X191.632 Y146.890 E-0.54727
G1 E-0.07000 F2100.00000
G1 Z0.500 F10800.000
G1 X193.268 Y141.528
G1 Z0.300
G1 E1.40000 F2100.00000
G1 F1200
G1 X193.405 Y142.040 E0.05355
G1 X193.605 Y142.447 E0.04577
G1 X193.870 Y142.815 E0.04577
G1 X194.193 Y143.133 E0.04577
G1 X194.565 Y143.393 E0.04577
G1 X194.975 Y143.586 E0.04577
G1 X195.328 Y143.684 E0.03696
G1 X195.867 Y143.754 E0.05489
G1 X193.864 Y145.782 E0.28767
G1 X191.666 Y147.873 E0.30614
G1 X189.405 Y149.895 E0.30616
G1 X187.083 Y151.847 E0.30615
G1 X184.702 Y153.726 E0.30615
G1 X182.263 Y155.530 E0.30619
G1 X179.771 Y157.259 E0.30608
G1 X177.226 Y158.910 E0.30617
G1 X174.632 Y160.481 E0.30615
G1 X171.990 Y161.972 E0.30615
G1 X169.302 Y163.381 E0.30625
G1 X166.575 Y164.705 E0.30601
G1 X163.806 Y165.946 E0.30619
G1 X161.000 Y167.100 E0.30628
G1 X158.977 Y167.862 E0.21817
G1 X161.489 Y166.746 E0.27744
G1 X164.096 Y165.483 E0.29238
G1 X166.660 Y164.133 E0.29238
G1 X169.177 Y162.699 E0.29238
G1 X171.644 Y161.181 E0.29238
G1 X174.060 Y159.582 E0.29238
G1 X176.420 Y157.902 E0.29238
G1 X178.724 Y156.145 E0.29238
G1 X180.967 Y154.312 E0.29238
G1 X183.148 Y152.405 E0.29238
G1 X185.263 Y150.426 E0.29238
G1 X187.312 Y148.378 E0.29238
G1 X189.291 Y146.262 E0.29238
G1 X191.198 Y144.081 E0.29238
G1 X193.195 Y141.623 E0.31963
G1 F8640
G1 X193.405 Y142.040 E-0.10784
G1 X193.605 Y142.447 E-0.10471
G1 X193.870 Y142.815 E-0.10470
G1 X194.193 Y143.133 E-0.10471
G1 X194.565 Y143.393 E-0.10472
G1 X194.975 Y143.586 E-0.10470
G1 X195.328 Y143.684 E-0.08457
G1 X195.867 Y143.754 E-0.12558
G1 X194.380 Y145.259 E-0.48847
G1 E-0.07000 F2100.00000
G1 Z0.500 F10800.000
G1 X71.197 Y157.010
G1 Z0.300
G1 E1.40000 F2100.00000
G1 F1200
G1 X70.639 Y156.648 E0.06717
G1 X68.165 Y154.933 E0.30375
G1 X65.745 Y153.141 E0.30394
G1 X63.381 Y151.276 E0.30386
G1 X61.076 Y149.339 E0.30386
G1 X58.832 Y147.332 E0.30387
G1 X56.651 Y145.257 E0.30385
G1 X55.557 Y144.149 E0.15717
G1 X55.715 Y144.074 E0.01758
G1 X56.256 Y143.724 E0.06508
G1 X56.691 Y143.296 E0.06162
G1 X56.934 Y142.958 E0.04203
G1 X58.240 Y144.556 E0.20831
G1 X60.164 Y146.755 E0.29486
G1 X62.159 Y148.889 E0.29486
G1 X64.225 Y150.955 E0.29486
G1 X66.359 Y152.951 E0.29486
G1 X68.558 Y154.874 E0.29486
G1 X71.102 Y156.937 E0.33052
G1 F8640
G1 X70.639 Y156.648 E-0.12607
G1 X68.165 Y154.933 E-0.69493
G1 X66.394 Y153.621 E-0.50900
G1 E-0.07000 F2100.00000
G1 Z0.500 F10800.000
G1 X91.023 Y167.861
G1 Z0.300
G1 E1.40000 F2100.00000
G1 F1200
G1 X89.000 Y167.100 E0.21817
G1 X86.194 Y165.946 E0.30628
G1 X83.425 Y164.705 E0.30619
G1 X80.698 Y163.381 E0.30601
G1 X78.010 Y161.972 E0.30625
G1 X75.368 Y160.481 E0.30615
G1 X72.774 Y158.910 E0.30615
G1 X70.229 Y157.259 E0.30617
G1 X67.737 Y155.530 E0.30608
G1 X65.298 Y153.726 E0.30620
G1 X62.917 Y151.847 E0.30615
G1 X60.595 Y149.895 E0.30615
G1 X58.334 Y147.873 E0.30615
G1 X56.136 Y145.782 E0.30614
G1 X54.133 Y143.754 E0.28767
G1 X54.588 Y143.708 E0.04619
G1 X55.025 Y143.586 E0.04576
G1 X55.356 Y143.430 E0.03696
G1 X55.793 Y143.147 E0.05251
G1 X56.130 Y142.815 E0.04777
G1 X56.395 Y142.447 E0.04577
G1 X56.595 Y142.040 E0.04577
G1 X56.732 Y141.528 E0.05355
G1 X58.802 Y144.081 E0.33174
G1 X60.709 Y146.262 E0.29238
G1 X62.688 Y148.378 E0.29238
G1 X64.737 Y150.426 E0.29238
G1 X66.852 Y152.405 E0.29238
G1 X69.033 Y154.312 E0.29238
G1 X71.276 Y156.145 E0.29238
G1 X73.580 Y157.902 E0.29238
G1 X75.940 Y159.582 E0.29238
G1 X78.356 Y161.181 E0.29238
G1 X80.823 Y162.699 E0.29238
G1 X83.340 Y164.133 E0.29238
G1 X85.904 Y165.483 E0.29238
G1 X88.511 Y166.746 E0.29238
G1 X90.914 Y167.813 E0.26533
G1 F8640
G1 X89.000 Y167.100 E-0.47147
G1 X86.194 Y165.946 E-0.70072
G1 X85.570 Y165.666 E-0.15781
G1 E-0.07000 F2100.00000
G1 Z0.500 F10800.000
G1 X40.558 Y77.038
G1 Z0.300
G1 E1.40000 F2100.00000
G1 F1200
G1 X40.173 Y77.101 E0.03941
G1 X39.921 Y77.186 E0.02678
G1 X39.921 Y74.654 E0.25550
G1 X40.525 Y76.923 E0.23692
G1 F8640
G1 X40.173 Y77.101 E-0.09121
G1 X39.921 Y77.186 E-0.06127
G1 X39.921 Y74.654 E-0.58455
G1 X40.525 Y76.923 E-0.54204
G1 E-0.12093 F2100.00000
G1 Z0.500 F10800.000
G1 X41.559 Y77.804
G1 Z0.300
G1 E1.40000 F2100.00000
G1 F1200
G1 X41.236 Y77.748 E0.03307
G1 X40.791 Y77.746 E0.04499
G1 X40.351 Y77.817 E0.04499
G1 X39.929 Y77.960 E0.04499
G1 X39.536 Y78.171 E0.04499
G1 X39.186 Y78.442 E0.04468
G1 X39.186 Y67.230 E1.13149
G1 X39.465 Y69.006 E0.18144
